%
O69420 (Tomfoolery With APCSP)
(Using high feed G1 F400. instead of G0.)
(T4 D=0.25 CR=0. - ZMIN=-0.3 - flat end mill)
(T8 D=0.125 CR=0. - ZMIN=-0.3 - flat end mill)
N10 G90 G17
N15 G20
N20 G53 G0 Z0.

(Bore1)
N25 T8 M6
N30 S6000 M3
N35 G54
N40 G17 G90
N45 G1 X3.5708 Y-4.9095 F400.
N50 G0 G43 Z0.6 H8
N55 T4
N60 G0 Z0.08
N65 G1 Z0.0125 F45.
N70 G18 G2 X3.5832 Z0. I0.0125 K0.
N75 G1 X3.5895
N80 G17 G3 X3.602 Y-4.897 I0. J0.0125
N85 X3.6019 Y-4.9001 Z-0.0388 I-0.0355 J0.
N90 X3.6015 Y-4.9032 Z-0.0776 I-0.0354 J0.0031
N95 X3.6008 Y-4.9062 Z-0.1165 I-0.035 J0.0062
N100 X3.5999 Y-4.9091 Z-0.1553 I-0.0343 J0.0092
N105 X3.5987 Y-4.912 Z-0.1941 I-0.0334 J0.0121
N110 X3.5972 Y-4.9147 Z-0.2329 I-0.0322 J0.015
N115 X3.5956 Y-4.9174 Z-0.2718 I-0.0307 J0.0178
N120 X3.5406 Y-4.9213 Z-0.3 I-0.0291 J0.0204
N125 X3.5924 Y-4.8727 I0.0259 J0.0243
N130 X3.5406 Y-4.9213 I-0.0259 J-0.0243
N135 X3.5583 Y-4.9219 I0.0091 J0.0086
N140 G1 X3.5628 Y-4.9176
N145 X3.5649 Y-4.9157 Z-0.2997
N150 X3.5668 Y-4.9139 Z-0.2988
N155 X3.5685 Y-4.9122 Z-0.2973
N160 X3.57 Y-4.9109 Z-0.2953
N165 X3.5711 Y-4.9099 Z-0.2929
N170 X3.5717 Y-4.9092 Z-0.2903
N175 X3.572 Y-4.909 Z-0.2875
N180 G0 Z0.2
N185 G1 X2.4173 Y-4.8845 F400.
N190 G0 Z0.08
N195 G1 Z0.0125 F45.
N200 G18 G3 X2.4048 Z0. I-0.0125 K0.
N205 G1 X2.3985
N210 G17 G3 X2.386 Y-4.897 I0. J-0.0125
N215 X2.3861 Y-4.8939 Z-0.0388 I0.0355 J0.
N220 X2.3865 Y-4.8908 Z-0.0776 I0.0354 J-0.0031
N225 X2.3872 Y-4.8878 Z-0.1165 I0.035 J-0.0062
N230 X2.3881 Y-4.8849 Z-0.1553 I0.0343 J-0.0092
N235 X2.3893 Y-4.882 Z-0.1941 I0.0334 J-0.0121
N240 X2.3908 Y-4.8792 Z-0.2329 I0.0322 J-0.015
N245 X2.3924 Y-4.8766 Z-0.2718 I0.0307 J-0.0177
N250 X2.4474 Y-4.8727 Z-0.3 I0.0291 J-0.0204
N255 X2.3956 Y-4.9213 I-0.0259 J-0.0243
N260 X2.4474 Y-4.8727 I0.0259 J0.0243
N265 X2.4297 Y-4.8721 I-0.0091 J-0.0086
N270 G1 X2.4252 Y-4.8764
N275 X2.4231 Y-4.8783 Z-0.2997
N280 X2.4212 Y-4.8801 Z-0.2988
N285 X2.4195 Y-4.8818 Z-0.2973
N290 X2.418 Y-4.8831 Z-0.2953
N295 X2.4169 Y-4.8841 Z-0.2929
N300 X2.4163 Y-4.8848 Z-0.2903
N305 X2.416 Y-4.885 Z-0.2875
N310 G0 Z0.2
N315 G1 X0.4355 Y-4.7512 F400.
N320 G0 Z0.08
N325 G1 Z0.0125 F45.
N330 G19 G2 Y-4.7638 Z0. J-0.0125 K0.
N335 G1 Y-4.77
N340 G17 G3 X0.448 Y-4.7825 I0.0125 J0.
N345 X0.4449 Y-4.7824 Z-0.0388 I0. J0.0355
N350 X0.4418 Y-4.782 Z-0.0776 I0.0031 J0.0354
N355 X0.4388 Y-4.7813 Z-0.1165 I0.0062 J0.035
N360 X0.4359 Y-4.7804 Z-0.1553 I0.0092 J0.0343
N365 X0.433 Y-4.7792 Z-0.1941 I0.0121 J0.0334
N370 X0.4302 Y-4.7777 Z-0.2329 I0.015 J0.0322
N375 X0.4276 Y-4.7761 Z-0.2718 I0.0178 J0.0307
N380 X0.4237 Y-4.7211 Z-0.3 I0.0204 J0.0291
N385 X0.4723 Y-4.7729 I0.0243 J-0.0259
N390 X0.4237 Y-4.7211 I-0.0243 J0.0259
N395 X0.4231 Y-4.7388 I0.0086 J-0.0091
N400 G1 X0.4274 Y-4.7433
N405 X0.4293 Y-4.7454 Z-0.2997
N410 X0.4311 Y-4.7473 Z-0.2988
N415 X0.4328 Y-4.749 Z-0.2973
N420 X0.4341 Y-4.7505 Z-0.2953
N425 X0.4351 Y-4.7516 Z-0.2929
N430 X0.4358 Y-4.7522 Z-0.2903
N435 X0.436 Y-4.7525 Z-0.2875
N440 G0 Z0.2
N445 G1 X0.4355 Y-5.2512 F400.
N450 G0 Z0.08
N455 G1 Z0.0125 F45.
N460 G19 G2 Y-5.2637 Z0. J-0.0125 K0.
N465 G1 Y-5.27
N470 G17 G3 X0.448 Y-5.2825 I0.0125 J0.
N475 X0.4449 Y-5.2824 Z-0.0388 I0. J0.0355
N480 X0.4418 Y-5.282 Z-0.0776 I0.0031 J0.0354
N485 X0.4388 Y-5.2813 Z-0.1165 I0.0062 J0.035
N490 X0.4359 Y-5.2804 Z-0.1553 I0.0092 J0.0343
N495 X0.433 Y-5.2792 Z-0.1941 I0.0121 J0.0334
N500 X0.4302 Y-5.2777 Z-0.2329 I0.015 J0.0322
N505 X0.4276 Y-5.2761 Z-0.2718 I0.0178 J0.0307
N510 X0.4237 Y-5.2211 Z-0.3 I0.0204 J0.0291
N515 X0.4723 Y-5.2729 I0.0243 J-0.0259
N520 X0.4237 Y-5.2211 I-0.0243 J0.0259
N525 X0.4231 Y-5.2388 I0.0086 J-0.0091
N530 G1 X0.4274 Y-5.2433
N535 X0.4293 Y-5.2454 Z-0.2997
N540 X0.4311 Y-5.2473 Z-0.2988
N545 X0.4328 Y-5.249 Z-0.2973
N550 X0.4341 Y-5.2505 Z-0.2953
N555 X0.4351 Y-5.2516 Z-0.2929
N560 X0.4358 Y-5.2522 Z-0.2903
N565 X0.436 Y-5.2525 Z-0.2875
N570 G0 Z0.2
N575 G1 X0.4355 Y-5.7513 F400.
N580 G0 Z0.08
N585 G1 Z0.0125 F45.
N590 G19 G2 Y-5.7637 Z0. J-0.0125 K0.
N595 G1 Y-5.77
N600 G17 G3 X0.448 Y-5.7825 I0.0125 J0.
N605 X0.4449 Y-5.7824 Z-0.0388 I0. J0.0355
N610 X0.4418 Y-5.782 Z-0.0776 I0.0031 J0.0354
N615 X0.4388 Y-5.7813 Z-0.1165 I0.0062 J0.035
N620 X0.4359 Y-5.7804 Z-0.1553 I0.0092 J0.0343
N625 X0.433 Y-5.7792 Z-0.1941 I0.0121 J0.0334
N630 X0.4302 Y-5.7777 Z-0.2329 I0.015 J0.0322
N635 X0.4276 Y-5.7761 Z-0.2718 I0.0178 J0.0307
N640 X0.4237 Y-5.7211 Z-0.3 I0.0204 J0.0291
N645 X0.4723 Y-5.7729 I0.0243 J-0.0259
N650 X0.4237 Y-5.7211 I-0.0243 J0.0259
N655 X0.4231 Y-5.7388 I0.0086 J-0.0091
N660 G1 X0.4274 Y-5.7433
N665 X0.4293 Y-5.7454 Z-0.2997
N670 X0.4311 Y-5.7473 Z-0.2988
N675 X0.4328 Y-5.749 Z-0.2973
N680 X0.4341 Y-5.7505 Z-0.2953
N685 X0.4351 Y-5.7516 Z-0.2929
N690 X0.4358 Y-5.7522 Z-0.2903
N695 X0.436 Y-5.7525 Z-0.2875
N700 G0 Z0.2
N705 G1 X0.4355 Y-6.2513 F400.
N710 G0 Z0.08
N715 G1 Z0.0125 F45.
N720 G19 G2 Y-6.2637 Z0. J-0.0125 K0.
N725 G1 Y-6.27
N730 G17 G3 X0.448 Y-6.2825 I0.0125 J0.
N735 X0.4449 Y-6.2824 Z-0.0388 I0. J0.0355
N740 X0.4418 Y-6.282 Z-0.0776 I0.0031 J0.0354
N745 X0.4388 Y-6.2813 Z-0.1165 I0.0062 J0.035
N750 X0.4359 Y-6.2804 Z-0.1553 I0.0092 J0.0343
N755 X0.433 Y-6.2792 Z-0.1941 I0.0121 J0.0334
N760 X0.4303 Y-6.2777 Z-0.2329 I0.015 J0.0322
N765 X0.4276 Y-6.2761 Z-0.2718 I0.0177 J0.0307
N770 X0.4237 Y-6.2211 Z-0.3 I0.0204 J0.0291
N775 X0.4723 Y-6.2729 I0.0243 J-0.0259
N780 X0.4237 Y-6.2211 I-0.0243 J0.0259
N785 X0.4231 Y-6.2388 I0.0086 J-0.0091
N790 G1 X0.4274 Y-6.2433
N795 X0.4293 Y-6.2454 Z-0.2997
N800 X0.4311 Y-6.2473 Z-0.2988
N805 X0.4328 Y-6.249 Z-0.2973
N810 X0.4341 Y-6.2505 Z-0.2953
N815 X0.4351 Y-6.2516 Z-0.2929
N820 X0.4358 Y-6.2522 Z-0.2903
N825 X0.436 Y-6.2525 Z-0.2875
N830 G0 Z0.2
N835 G1 X0.4355 Y-6.7513 F400.
N840 G0 Z0.08
N845 G1 Z0.0125 F45.
N850 G19 G2 Y-6.7638 Z0. J-0.0125 K0.
N855 G1 Y-6.77
N860 G17 G3 X0.448 Y-6.7825 I0.0125 J0.
N865 X0.4449 Y-6.7824 Z-0.0388 I0. J0.0355
N870 X0.4418 Y-6.782 Z-0.0776 I0.0031 J0.0354
N875 X0.4388 Y-6.7813 Z-0.1165 I0.0062 J0.035
N880 X0.4359 Y-6.7804 Z-0.1553 I0.0092 J0.0343
N885 X0.433 Y-6.7792 Z-0.1941 I0.0121 J0.0334
N890 X0.4303 Y-6.7777 Z-0.2329 I0.015 J0.0322
N895 X0.4276 Y-6.7761 Z-0.2718 I0.0177 J0.0307
N900 X0.4237 Y-6.7211 Z-0.3 I0.0204 J0.0291
N905 X0.4723 Y-6.7729 I0.0243 J-0.0259
N910 X0.4237 Y-6.7211 I-0.0243 J0.0259
N915 X0.4231 Y-6.7388 I0.0086 J-0.0091
N920 G1 X0.4274 Y-6.7433
N925 X0.4293 Y-6.7454 Z-0.2997
N930 X0.4311 Y-6.7473 Z-0.2988
N935 X0.4328 Y-6.749 Z-0.2973
N940 X0.4341 Y-6.7505 Z-0.2953
N945 X0.4351 Y-6.7516 Z-0.2929
N950 X0.4358 Y-6.7522 Z-0.2903
N955 X0.436 Y-6.7525 Z-0.2875
N960 G0 Z0.2
N965 G1 X0.4355 Y-7.2512 F400.
N970 G0 Z0.08
N975 G1 Z0.0125 F45.
N980 G19 G2 Y-7.2638 Z0. J-0.0125 K0.
N985 G1 Y-7.27
N990 G17 G3 X0.448 Y-7.2825 I0.0125 J0.
N995 X0.4449 Y-7.2824 Z-0.0388 I0. J0.0355
N1000 X0.4418 Y-7.282 Z-0.0776 I0.0031 J0.0354
N1005 X0.4388 Y-7.2813 Z-0.1165 I0.0062 J0.035
N1010 X0.4359 Y-7.2804 Z-0.1553 I0.0092 J0.0343
N1015 X0.433 Y-7.2792 Z-0.1941 I0.0121 J0.0334
N1020 X0.4302 Y-7.2777 Z-0.2329 I0.015 J0.0322
N1025 X0.4276 Y-7.2761 Z-0.2718 I0.0178 J0.0307
N1030 X0.4237 Y-7.2211 Z-0.3 I0.0204 J0.0291
N1035 X0.4723 Y-7.2729 I0.0243 J-0.0259
N1040 X0.4237 Y-7.2211 I-0.0243 J0.0259
N1045 X0.4231 Y-7.2388 I0.0086 J-0.0091
N1050 G1 X0.4274 Y-7.2433
N1055 X0.4293 Y-7.2454 Z-0.2997
N1060 X0.4311 Y-7.2473 Z-0.2988
N1065 X0.4328 Y-7.249 Z-0.2973
N1070 X0.4341 Y-7.2505 Z-0.2953
N1075 X0.4351 Y-7.2516 Z-0.2929
N1080 X0.4358 Y-7.2522 Z-0.2903
N1085 X0.436 Y-7.2525 Z-0.2875
N1090 G0 Z0.2
N1095 G1 X0.4355 Y-7.7512 F400.
N1100 G0 Z0.08
N1105 G1 Z0.0125 F45.
N1110 G19 G2 Y-7.7637 Z0. J-0.0125 K0.
N1115 G1 Y-7.77
N1120 G17 G3 X0.448 Y-7.7825 I0.0125 J0.
N1125 X0.4449 Y-7.7824 Z-0.0388 I0. J0.0355
N1130 X0.4418 Y-7.782 Z-0.0776 I0.0031 J0.0354
N1135 X0.4388 Y-7.7813 Z-0.1165 I0.0062 J0.035
N1140 X0.4359 Y-7.7804 Z-0.1553 I0.0092 J0.0343
N1145 X0.433 Y-7.7792 Z-0.1941 I0.0121 J0.0334
N1150 X0.4302 Y-7.7777 Z-0.2329 I0.015 J0.0322
N1155 X0.4276 Y-7.7761 Z-0.2718 I0.0178 J0.0307
N1160 X0.4237 Y-7.7211 Z-0.3 I0.0204 J0.0291
N1165 X0.4723 Y-7.7729 I0.0243 J-0.0259
N1170 X0.4237 Y-7.7211 I-0.0243 J0.0259
N1175 X0.4231 Y-7.7388 I0.0086 J-0.0091
N1180 G1 X0.4274 Y-7.7433
N1185 X0.4293 Y-7.7454 Z-0.2997
N1190 X0.4311 Y-7.7473 Z-0.2988
N1195 X0.4328 Y-7.749 Z-0.2973
N1200 X0.4341 Y-7.7505 Z-0.2953
N1205 X0.4351 Y-7.7516 Z-0.2929
N1210 X0.4358 Y-7.7522 Z-0.2903
N1215 X0.436 Y-7.7525 Z-0.2875
N1220 G0 Z0.2
N1225 G1 X0.4355 Y-8.2513 F400.
N1230 G0 Z0.08
N1235 G1 Z0.0125 F45.
N1240 G19 G2 Y-8.2637 Z0. J-0.0125 K0.
N1245 G1 Y-8.27
N1250 G17 G3 X0.448 Y-8.2825 I0.0125 J0.
N1255 X0.4449 Y-8.2824 Z-0.0388 I0. J0.0355
N1260 X0.4418 Y-8.282 Z-0.0776 I0.0031 J0.0354
N1265 X0.4388 Y-8.2813 Z-0.1165 I0.0062 J0.035
N1270 X0.4359 Y-8.2804 Z-0.1553 I0.0092 J0.0343
N1275 X0.433 Y-8.2792 Z-0.1941 I0.0121 J0.0334
N1280 X0.4302 Y-8.2777 Z-0.2329 I0.015 J0.0322
N1285 X0.4276 Y-8.2761 Z-0.2718 I0.0178 J0.0307
N1290 X0.4237 Y-8.2211 Z-0.3 I0.0204 J0.0291
N1295 X0.4723 Y-8.2729 I0.0243 J-0.0259
N1300 X0.4237 Y-8.2211 I-0.0243 J0.0259
N1305 X0.4231 Y-8.2388 I0.0086 J-0.0091
N1310 G1 X0.4274 Y-8.2433
N1315 X0.4293 Y-8.2454 Z-0.2997
N1320 X0.4311 Y-8.2473 Z-0.2988
N1325 X0.4328 Y-8.249 Z-0.2973
N1330 X0.4341 Y-8.2505 Z-0.2953
N1335 X0.4351 Y-8.2516 Z-0.2929
N1340 X0.4358 Y-8.2522 Z-0.2903
N1345 X0.436 Y-8.2525 Z-0.2875
N1350 G0 Z0.2
N1355 G1 X0.4355 Y-8.7513 F400.
N1360 G0 Z0.08
N1365 G1 Z0.0125 F45.
N1370 G19 G2 Y-8.7637 Z0. J-0.0125 K0.
N1375 G1 Y-8.77
N1380 G17 G3 X0.448 Y-8.7825 I0.0125 J0.
N1385 X0.4449 Y-8.7824 Z-0.0388 I0. J0.0355
N1390 X0.4418 Y-8.782 Z-0.0776 I0.0031 J0.0354
N1395 X0.4388 Y-8.7813 Z-0.1165 I0.0062 J0.035
N1400 X0.4359 Y-8.7804 Z-0.1553 I0.0092 J0.0343
N1405 X0.433 Y-8.7792 Z-0.1941 I0.0121 J0.0334
N1410 X0.4303 Y-8.7777 Z-0.2329 I0.015 J0.0322
N1415 X0.4276 Y-8.7761 Z-0.2718 I0.0177 J0.0307
N1420 X0.4237 Y-8.7211 Z-0.3 I0.0204 J0.0291
N1425 X0.4723 Y-8.7729 I0.0243 J-0.0259
N1430 X0.4237 Y-8.7211 I-0.0243 J0.0259
N1435 X0.4231 Y-8.7388 I0.0086 J-0.0091
N1440 G1 X0.4274 Y-8.7433
N1445 X0.4293 Y-8.7454 Z-0.2997
N1450 X0.4311 Y-8.7473 Z-0.2988
N1455 X0.4328 Y-8.749 Z-0.2973
N1460 X0.4341 Y-8.7505 Z-0.2953
N1465 X0.4351 Y-8.7516 Z-0.2929
N1470 X0.4358 Y-8.7522 Z-0.2903
N1475 X0.436 Y-8.7525 Z-0.2875
N1480 G0 Z0.2
N1485 G1 X0.4355 Y-9.2513 F400.
N1490 G0 Z0.08
N1495 G1 Z0.0125 F45.
N1500 G19 G2 Y-9.2638 Z0. J-0.0125 K0.
N1505 G1 Y-9.27
N1510 G17 G3 X0.448 Y-9.2825 I0.0125 J0.
N1515 X0.4449 Y-9.2824 Z-0.0388 I0. J0.0355
N1520 X0.4418 Y-9.282 Z-0.0776 I0.0031 J0.0354
N1525 X0.4388 Y-9.2813 Z-0.1165 I0.0062 J0.035
N1530 X0.4359 Y-9.2804 Z-0.1553 I0.0092 J0.0343
N1535 X0.433 Y-9.2792 Z-0.1941 I0.0121 J0.0334
N1540 X0.4303 Y-9.2777 Z-0.2329 I0.015 J0.0322
N1545 X0.4276 Y-9.2761 Z-0.2718 I0.0177 J0.0307
N1550 X0.4237 Y-9.2211 Z-0.3 I0.0204 J0.0291
N1555 X0.4723 Y-9.2729 I0.0243 J-0.0259
N1560 X0.4237 Y-9.2211 I-0.0243 J0.0259
N1565 X0.4231 Y-9.2388 I0.0086 J-0.0091
N1570 G1 X0.4274 Y-9.2433
N1575 X0.4293 Y-9.2454 Z-0.2997
N1580 X0.4311 Y-9.2473 Z-0.2988
N1585 X0.4328 Y-9.249 Z-0.2973
N1590 X0.4341 Y-9.2505 Z-0.2953
N1595 X0.4351 Y-9.2516 Z-0.2929
N1600 X0.4358 Y-9.2522 Z-0.2903
N1605 X0.436 Y-9.2525 Z-0.2875
N1610 G0 Z0.2
N1615 G1 X0.4355 Y-9.7512 F400.
N1620 G0 Z0.08
N1625 G1 Z0.0125 F45.
N1630 G19 G2 Y-9.7638 Z0. J-0.0125 K0.
N1635 G1 Y-9.77
N1640 G17 G3 X0.448 Y-9.7825 I0.0125 J0.
N1645 X0.4449 Y-9.7824 Z-0.0388 I0. J0.0355
N1650 X0.4418 Y-9.782 Z-0.0776 I0.0031 J0.0354
N1655 X0.4388 Y-9.7813 Z-0.1165 I0.0062 J0.035
N1660 X0.4359 Y-9.7804 Z-0.1553 I0.0092 J0.0343
N1665 X0.433 Y-9.7792 Z-0.1941 I0.0121 J0.0334
N1670 X0.4302 Y-9.7777 Z-0.2329 I0.015 J0.0322
N1675 X0.4276 Y-9.7761 Z-0.2718 I0.0178 J0.0307
N1680 X0.4237 Y-9.7211 Z-0.3 I0.0204 J0.0291
N1685 X0.4723 Y-9.7729 I0.0243 J-0.0259
N1690 X0.4237 Y-9.7211 I-0.0243 J0.0259
N1695 X0.4231 Y-9.7388 I0.0086 J-0.0091
N1700 G1 X0.4274 Y-9.7433
N1705 X0.4293 Y-9.7454 Z-0.2997
N1710 X0.4311 Y-9.7473 Z-0.2988
N1715 X0.4328 Y-9.749 Z-0.2973
N1720 X0.4341 Y-9.7505 Z-0.2953
N1725 X0.4351 Y-9.7516 Z-0.2929
N1730 X0.4358 Y-9.7522 Z-0.2903
N1735 X0.436 Y-9.7525 Z-0.2875
N1740 G0 Z0.2
N1745 G1 X0.4355 Y-10.2512 F400.
N1750 G0 Z0.08
N1755 G1 Z0.0125 F45.
N1760 G19 G2 Y-10.2637 Z0. J-0.0125 K0.
N1765 G1 Y-10.27
N1770 G17 G3 X0.448 Y-10.2825 I0.0125 J0.
N1775 X0.4449 Y-10.2824 Z-0.0388 I0. J0.0355
N1780 X0.4418 Y-10.282 Z-0.0776 I0.0031 J0.0354
N1785 X0.4388 Y-10.2813 Z-0.1165 I0.0062 J0.035
N1790 X0.4359 Y-10.2804 Z-0.1553 I0.0092 J0.0343
N1795 X0.433 Y-10.2792 Z-0.1941 I0.0121 J0.0334
N1800 X0.4302 Y-10.2777 Z-0.2329 I0.015 J0.0322
N1805 X0.4276 Y-10.2761 Z-0.2718 I0.0178 J0.0307
N1810 X0.4237 Y-10.2211 Z-0.3 I0.0204 J0.0291
N1815 X0.4723 Y-10.2729 I0.0243 J-0.0259
N1820 X0.4237 Y-10.2211 I-0.0243 J0.0259
N1825 X0.4231 Y-10.2388 I0.0086 J-0.0091
N1830 G1 X0.4274 Y-10.2433
N1835 X0.4293 Y-10.2454 Z-0.2997
N1840 X0.4311 Y-10.2473 Z-0.2988
N1845 X0.4328 Y-10.249 Z-0.2973
N1850 X0.4341 Y-10.2505 Z-0.2953
N1855 X0.4351 Y-10.2516 Z-0.2929
N1860 X0.4358 Y-10.2522 Z-0.2903
N1865 X0.436 Y-10.2525 Z-0.2875
N1870 G0 Z0.2
N1875 G1 X0.4355 Y-10.7513 F400.
N1880 G0 Z0.08
N1885 G1 Z0.0125 F45.
N1890 G19 G2 Y-10.7638 Z0. J-0.0125 K0.
N1895 G1 Y-10.77
N1900 G17 G3 X0.448 Y-10.7825 I0.0125 J0.
N1905 X0.4449 Y-10.7824 Z-0.0388 I0. J0.0355
N1910 X0.4418 Y-10.782 Z-0.0776 I0.0031 J0.0354
N1915 X0.4388 Y-10.7813 Z-0.1165 I0.0062 J0.035
N1920 X0.4359 Y-10.7804 Z-0.1553 I0.0092 J0.0343
N1925 X0.433 Y-10.7792 Z-0.1941 I0.0121 J0.0334
N1930 X0.4303 Y-10.7777 Z-0.2329 I0.015 J0.0322
N1935 X0.4276 Y-10.7761 Z-0.2718 I0.0177 J0.0307
N1940 X0.4237 Y-10.7211 Z-0.3 I0.0204 J0.0291
N1945 X0.4723 Y-10.7729 I0.0243 J-0.0259
N1950 X0.4237 Y-10.7211 I-0.0243 J0.0259
N1955 X0.4231 Y-10.7388 I0.0086 J-0.0091
N1960 G1 X0.4274 Y-10.7433
N1965 X0.4293 Y-10.7454 Z-0.2997
N1970 X0.4311 Y-10.7473 Z-0.2988
N1975 X0.4328 Y-10.749 Z-0.2973
N1980 X0.4341 Y-10.7505 Z-0.2953
N1985 X0.4351 Y-10.7516 Z-0.2929
N1990 X0.4358 Y-10.7522 Z-0.2903
N1995 X0.436 Y-10.7525 Z-0.2875
N2000 G0 Z0.2
N2005 G1 X0.4355 Y-11.2512 F400.
N2010 G0 Z0.08
N2015 G1 Z0.0125 F45.
N2020 G19 G2 Y-11.2637 Z0. J-0.0125 K0.
N2025 G1 Y-11.27
N2030 G17 G3 X0.448 Y-11.2825 I0.0125 J0.
N2035 X0.4449 Y-11.2824 Z-0.0388 I0. J0.0355
N2040 X0.4418 Y-11.282 Z-0.0776 I0.0031 J0.0354
N2045 X0.4388 Y-11.2813 Z-0.1165 I0.0062 J0.035
N2050 X0.4359 Y-11.2804 Z-0.1553 I0.0092 J0.0343
N2055 X0.433 Y-11.2792 Z-0.1941 I0.0121 J0.0334
N2060 X0.4302 Y-11.2777 Z-0.2329 I0.015 J0.0322
N2065 X0.4276 Y-11.2761 Z-0.2718 I0.0178 J0.0307
N2070 X0.4237 Y-11.2211 Z-0.3 I0.0204 J0.0291
N2075 X0.4723 Y-11.2729 I0.0243 J-0.0259
N2080 X0.4237 Y-11.2211 I-0.0243 J0.0259
N2085 X0.4231 Y-11.2388 I0.0086 J-0.0091
N2090 G1 X0.4274 Y-11.2433
N2095 X0.4293 Y-11.2454 Z-0.2997
N2100 X0.4311 Y-11.2473 Z-0.2988
N2105 X0.4328 Y-11.249 Z-0.2973
N2110 X0.4341 Y-11.2505 Z-0.2953
N2115 X0.4351 Y-11.2516 Z-0.2929
N2120 X0.4358 Y-11.2522 Z-0.2903
N2125 X0.436 Y-11.2525 Z-0.2875
N2130 G0 Z0.2
N2135 G1 X2.4173 Y-8.3885 F400.
N2140 G0 Z0.08
N2145 G1 Z0.0125 F45.
N2150 G18 G3 X2.4048 Z0. I-0.0125 K0.
N2155 G1 X2.3985
N2160 G17 G3 X2.386 Y-8.401 I0. J-0.0125
N2165 X2.3861 Y-8.3979 Z-0.0388 I0.0355 J0.
N2170 X2.3865 Y-8.3948 Z-0.0776 I0.0354 J-0.0031
N2175 X2.3872 Y-8.3918 Z-0.1165 I0.035 J-0.0062
N2180 X2.3881 Y-8.3889 Z-0.1553 I0.0343 J-0.0092
N2185 X2.3893 Y-8.386 Z-0.1941 I0.0334 J-0.0121
N2190 X2.3908 Y-8.3833 Z-0.2329 I0.0322 J-0.015
N2195 X2.3924 Y-8.3806 Z-0.2718 I0.0307 J-0.0178
N2200 X2.4474 Y-8.3767 Z-0.3 I0.0291 J-0.0204
N2205 X2.3956 Y-8.4253 I-0.0259 J-0.0243
N2210 X2.4474 Y-8.3767 I0.0259 J0.0243
N2215 X2.4297 Y-8.3761 I-0.0091 J-0.0086
N2220 G1 X2.4252 Y-8.3804
N2225 X2.4231 Y-8.3823 Z-0.2997
N2230 X2.4212 Y-8.3841 Z-0.2988
N2235 X2.4195 Y-8.3858 Z-0.2973
N2240 X2.418 Y-8.3871 Z-0.2953
N2245 X2.4169 Y-8.3881 Z-0.2929
N2250 X2.4163 Y-8.3888 Z-0.2903
N2255 X2.416 Y-8.389 Z-0.2875
N2260 G0 Z0.2
N2265 G1 X3.5622 Y-8.3885 F400.
N2270 G0 Z0.08
N2275 G1 Z0.0125 F45.
N2280 G18 G3 X3.5498 Z0. I-0.0125 K0.
N2285 G1 X3.5435
N2290 G17 G3 X3.531 Y-8.401 I0. J-0.0125
N2295 X3.5311 Y-8.3979 Z-0.0388 I0.0355 J0.
N2300 X3.5315 Y-8.3948 Z-0.0776 I0.0354 J-0.0031
N2305 X3.5322 Y-8.3918 Z-0.1165 I0.035 J-0.0062
N2310 X3.5331 Y-8.3889 Z-0.1553 I0.0343 J-0.0092
N2315 X3.5343 Y-8.386 Z-0.1941 I0.0334 J-0.0121
N2320 X3.5358 Y-8.3833 Z-0.2329 I0.0322 J-0.015
N2325 X3.5374 Y-8.3806 Z-0.2718 I0.0307 J-0.0178
N2330 X3.5924 Y-8.3767 Z-0.3 I0.0291 J-0.0204
N2335 X3.5406 Y-8.4253 I-0.0259 J-0.0243
N2340 X3.5924 Y-8.3767 I0.0259 J0.0243
N2345 X3.5747 Y-8.3761 I-0.0091 J-0.0086
N2350 G1 X3.5702 Y-8.3804
N2355 X3.5681 Y-8.3823 Z-0.2997
N2360 X3.5662 Y-8.3841 Z-0.2988
N2365 X3.5645 Y-8.3858 Z-0.2973
N2370 X3.563 Y-8.3871 Z-0.2953
N2375 X3.5619 Y-8.3881 Z-0.2929
N2380 X3.5613 Y-8.3888 Z-0.2903
N2385 X3.561 Y-8.389 Z-0.2875
N2390 G0 Z0.2
N2395 G1 X3.5 Y-10.495 F400.
N2400 G0 Z0.0675
N2405 G1 Z0. F45.
N2410 X3.5012 Y-10.4938
N2415 X3.5011 Y-10.4931
N2420 X3.5006 Y-10.4927
N2425 X3.5 Y-10.4925
N2430 X3.4988 Y-10.4928 Z-0.003
N2435 X3.4979 Y-10.4936 Z-0.0061
N2440 X3.4975 Y-10.4947 Z-0.0091
N2445 X3.4977 Y-10.4959 Z-0.0121
N2450 X3.4983 Y-10.4969 Z-0.0152
N2455 X3.4994 Y-10.4974 Z-0.0182
N2460 X3.5006 Z-0.0212
N2465 X3.5017 Y-10.4969 Z-0.0242
N2470 X3.5023 Y-10.4959 Z-0.0273
N2475 X3.5025 Y-10.4947 Z-0.0303
N2480 X3.5021 Y-10.4936 Z-0.0333
N2485 X3.5012 Y-10.4928 Z-0.0364
N2490 X3.5 Y-10.4925 Z-0.0394
N2495 X3.4988 Y-10.4928 Z-0.0424
N2500 X3.4979 Y-10.4936 Z-0.0455
N2505 X3.4975 Y-10.4947 Z-0.0485
N2510 X3.4977 Y-10.4959 Z-0.0515
N2515 X3.4984 Y-10.4969 Z-0.0545
N2520 X3.4994 Y-10.4974 Z-0.0576
N2525 X3.5006 Z-0.0606
N2530 X3.5017 Y-10.4969 Z-0.0636
N2535 X3.5023 Y-10.4959 Z-0.0667
N2540 X3.5025 Y-10.4947 Z-0.0697
N2545 X3.502 Y-10.4936 Z-0.0727
N2550 X3.5011 Y-10.4928 Z-0.0758
N2555 X3.5 Y-10.4925 Z-0.0788
N2560 X3.4988 Y-10.4928 Z-0.0818
N2565 X3.4979 Y-10.4936 Z-0.0848
N2570 X3.4975 Y-10.4947 Z-0.0879
N2575 X3.4977 Y-10.4959 Z-0.0909
N2580 X3.4984 Y-10.4969 Z-0.0939
N2585 X3.4994 Y-10.4974 Z-0.097
N2590 X3.5006 Z-0.1
N2595 X3.5017 Y-10.4969 Z-0.103
N2600 X3.5023 Y-10.4959 Z-0.1061
N2605 X3.5025 Y-10.4947 Z-0.1091
N2610 X3.502 Y-10.4936 Z-0.1121
N2615 X3.5011 Y-10.4928 Z-0.1152
N2620 X3.5 Y-10.4925 Z-0.1182
N2625 X3.4988 Y-10.4928 Z-0.1212
N2630 X3.4979 Y-10.4936 Z-0.1242
N2635 X3.4975 Y-10.4947 Z-0.1273
N2640 X3.4977 Y-10.4959 Z-0.1303
N2645 X3.4984 Y-10.4969 Z-0.1333
N2650 X3.4994 Y-10.4974 Z-0.1364
N2655 X3.5006 Z-0.1394
N2660 X3.5017 Y-10.4968 Z-0.1424
N2665 X3.5023 Y-10.4959 Z-0.1455
N2670 X3.5025 Y-10.4947 Z-0.1485
N2675 X3.502 Y-10.4935 Z-0.1515
N2680 X3.5011 Y-10.4928 Z-0.1545
N2685 X3.5 Y-10.4925 Z-0.1576
N2690 X3.4988 Y-10.4928 Z-0.1606
N2695 X3.4979 Y-10.4936 Z-0.1636
N2700 X3.4975 Y-10.4947 Z-0.1667
N2705 X3.4977 Y-10.4959 Z-0.1697
N2710 X3.4984 Y-10.4969 Z-0.1727
N2715 X3.4994 Y-10.4974 Z-0.1758
N2720 X3.5006 Z-0.1788
N2725 X3.5017 Y-10.4968 Z-0.1818
N2730 X3.5024 Y-10.4958 Z-0.1848
N2735 X3.5025 Y-10.4947 Z-0.1879
N2740 X3.502 Y-10.4935 Z-0.1909
N2745 X3.5011 Y-10.4928 Z-0.1939
N2750 X3.5 Y-10.4925 Z-0.197
N2755 X3.4988 Y-10.4928 Z-0.2
N2760 X3.4979 Y-10.4936 Z-0.203
N2765 X3.4975 Y-10.4947 Z-0.2061
N2770 X3.4977 Y-10.4959 Z-0.2091
N2775 X3.4984 Y-10.4969 Z-0.2121
N2780 X3.4995 Y-10.4974 Z-0.2152
N2785 X3.5006 Z-0.2182
N2790 X3.5017 Y-10.4968 Z-0.2212
N2795 X3.5024 Y-10.4958 Z-0.2242
N2800 X3.5025 Y-10.4946 Z-0.2273
N2805 X3.502 Y-10.4935 Z-0.2303
N2810 X3.5011 Y-10.4928 Z-0.2333
N2815 X3.4999 Y-10.4925 Z-0.2364
N2820 X3.4988 Y-10.4928 Z-0.2394
N2825 X3.4979 Y-10.4936 Z-0.2424
N2830 X3.4975 Y-10.4948 Z-0.2455
N2835 X3.4977 Y-10.4959 Z-0.2485
N2840 X3.4984 Y-10.4969 Z-0.2515
N2845 X3.4995 Y-10.4974 Z-0.2545
N2850 X3.5007 Z-0.2576
N2855 X3.5017 Y-10.4968 Z-0.2606
N2860 X3.5024 Y-10.4958 Z-0.2636
N2865 X3.5025 Y-10.4946 Z-0.2667
N2870 X3.502 Y-10.4935 Z-0.2697
N2875 X3.5011 Y-10.4928 Z-0.2727
N2880 X3.4999 Y-10.4925 Z-0.2758
N2885 X3.4988 Y-10.4928 Z-0.2788
N2890 X3.4979 Y-10.4936 Z-0.2818
N2895 X3.4975 Y-10.4948 Z-0.2848
N2900 X3.4977 Y-10.496 Z-0.2879
N2905 X3.4984 Y-10.4969 Z-0.2909
N2910 X3.4995 Y-10.4974 Z-0.2939
N2915 X3.5007 Z-0.297
N2920 X3.5017 Y-10.4968 Z-0.3
N2925 G3 X3.4983 Y-10.4932 I-0.0017 J0.0018
N2930 X3.5017 Y-10.4968 I0.0017 J-0.0018
N2935 G1 X3.5021 Y-10.4963
N2940 Y-10.4956
N2945 X3.5018 Y-10.4951
N2950 X3.5 Y-10.495
N2955 G0 Z0.2
N2960 X4.5
N2965 Z0.0675
N2970 G1 Z0. F45.
N2975 X4.5012 Y-10.4938
N2980 X4.5011 Y-10.4931
N2985 X4.5006 Y-10.4927
N2990 X4.5 Y-10.4925
N2995 X4.4988 Y-10.4928 Z-0.003
N3000 X4.4979 Y-10.4936 Z-0.0061
N3005 X4.4975 Y-10.4947 Z-0.0091
N3010 X4.4977 Y-10.4959 Z-0.0121
N3015 X4.4983 Y-10.4969 Z-0.0152
N3020 X4.4994 Y-10.4974 Z-0.0182
N3025 X4.5006 Z-0.0212
N3030 X4.5017 Y-10.4969 Z-0.0242
N3035 X4.5023 Y-10.4959 Z-0.0273
N3040 X4.5025 Y-10.4947 Z-0.0303
N3045 X4.5021 Y-10.4936 Z-0.0333
N3050 X4.5012 Y-10.4928 Z-0.0364
N3055 X4.5 Y-10.4925 Z-0.0394
N3060 X4.4988 Y-10.4928 Z-0.0424
N3065 X4.4979 Y-10.4936 Z-0.0455
N3070 X4.4975 Y-10.4947 Z-0.0485
N3075 X4.4977 Y-10.4959 Z-0.0515
N3080 X4.4984 Y-10.4969 Z-0.0545
N3085 X4.4994 Y-10.4974 Z-0.0576
N3090 X4.5006 Z-0.0606
N3095 X4.5017 Y-10.4969 Z-0.0636
N3100 X4.5023 Y-10.4959 Z-0.0667
N3105 X4.5025 Y-10.4947 Z-0.0697
N3110 X4.502 Y-10.4936 Z-0.0727
N3115 X4.5011 Y-10.4928 Z-0.0758
N3120 X4.5 Y-10.4925 Z-0.0788
N3125 X4.4988 Y-10.4928 Z-0.0818
N3130 X4.4979 Y-10.4936 Z-0.0848
N3135 X4.4975 Y-10.4947 Z-0.0879
N3140 X4.4977 Y-10.4959 Z-0.0909
N3145 X4.4984 Y-10.4969 Z-0.0939
N3150 X4.4994 Y-10.4974 Z-0.097
N3155 X4.5006 Z-0.1
N3160 X4.5017 Y-10.4969 Z-0.103
N3165 X4.5023 Y-10.4959 Z-0.1061
N3170 X4.5025 Y-10.4947 Z-0.1091
N3175 X4.502 Y-10.4936 Z-0.1121
N3180 X4.5011 Y-10.4928 Z-0.1152
N3185 X4.5 Y-10.4925 Z-0.1182
N3190 X4.4988 Y-10.4928 Z-0.1212
N3195 X4.4979 Y-10.4936 Z-0.1242
N3200 X4.4975 Y-10.4947 Z-0.1273
N3205 X4.4977 Y-10.4959 Z-0.1303
N3210 X4.4984 Y-10.4969 Z-0.1333
N3215 X4.4994 Y-10.4974 Z-0.1364
N3220 X4.5006 Z-0.1394
N3225 X4.5017 Y-10.4968 Z-0.1424
N3230 X4.5024 Y-10.4959 Z-0.1455
N3235 X4.5025 Y-10.4947 Z-0.1485
N3240 X4.502 Y-10.4935 Z-0.1515
N3245 X4.5011 Y-10.4928 Z-0.1545
N3250 X4.5 Y-10.4925 Z-0.1576
N3255 X4.4988 Y-10.4928 Z-0.1606
N3260 X4.4979 Y-10.4936 Z-0.1636
N3265 X4.4975 Y-10.4947 Z-0.1667
N3270 X4.4977 Y-10.4959 Z-0.1697
N3275 X4.4984 Y-10.4969 Z-0.1727
N3280 X4.4994 Y-10.4974 Z-0.1758
N3285 X4.5006 Z-0.1788
N3290 X4.5017 Y-10.4968 Z-0.1818
N3295 X4.5024 Y-10.4958 Z-0.1848
N3300 X4.5025 Y-10.4947 Z-0.1879
N3305 X4.502 Y-10.4935 Z-0.1909
N3310 X4.5011 Y-10.4928 Z-0.1939
N3315 X4.5 Y-10.4925 Z-0.197
N3320 X4.4988 Y-10.4928 Z-0.2
N3325 X4.4979 Y-10.4936 Z-0.203
N3330 X4.4975 Y-10.4947 Z-0.2061
N3335 X4.4977 Y-10.4959 Z-0.2091
N3340 X4.4984 Y-10.4969 Z-0.2121
N3345 X4.4995 Y-10.4974 Z-0.2152
N3350 X4.5006 Z-0.2182
N3355 X4.5017 Y-10.4968 Z-0.2212
N3360 X4.5024 Y-10.4958 Z-0.2242
N3365 X4.5025 Y-10.4946 Z-0.2273
N3370 X4.502 Y-10.4935 Z-0.2303
N3375 X4.5011 Y-10.4928 Z-0.2333
N3380 X4.4999 Y-10.4925 Z-0.2364
N3385 X4.4988 Y-10.4928 Z-0.2394
N3390 X4.4979 Y-10.4936 Z-0.2424
N3395 X4.4975 Y-10.4948 Z-0.2455
N3400 X4.4977 Y-10.4959 Z-0.2485
N3405 X4.4984 Y-10.4969 Z-0.2515
N3410 X4.4995 Y-10.4974 Z-0.2545
N3415 X4.5007 Z-0.2576
N3420 X4.5017 Y-10.4968 Z-0.2606
N3425 X4.5024 Y-10.4958 Z-0.2636
N3430 X4.5025 Y-10.4946 Z-0.2667
N3435 X4.502 Y-10.4935 Z-0.2697
N3440 X4.5011 Y-10.4928 Z-0.2727
N3445 X4.4999 Y-10.4925 Z-0.2758
N3450 X4.4988 Y-10.4928 Z-0.2788
N3455 X4.4979 Y-10.4936 Z-0.2818
N3460 X4.4975 Y-10.4948 Z-0.2848
N3465 X4.4977 Y-10.496 Z-0.2879
N3470 X4.4984 Y-10.4969 Z-0.2909
N3475 X4.4995 Y-10.4974 Z-0.2939
N3480 X4.5007 Z-0.297
N3485 X4.5017 Y-10.4968 Z-0.3
N3490 G3 X4.4983 Y-10.4932 I-0.0017 J0.0018
N3495 X4.5017 Y-10.4968 I0.0017 J-0.0018
N3500 G1 X4.5021 Y-10.4963
N3505 Y-10.4956
N3510 X4.5018 Y-10.4951
N3515 X4.5 Y-10.495
N3520 G0 Z0.2
N3525 G1 X11.6255 Y-10.3793 F400.
N3530 G0 Z0.08
N3535 G1 Z0.0125 F45.
N3540 G19 G2 Y-10.3917 Z0. J-0.0125 K0.
N3545 G1 Y-10.398
N3550 G17 G3 X11.638 Y-10.4105 I0.0125 J0.
N3555 X11.6349 Y-10.4104 Z-0.0388 I0. J0.0355
N3560 X11.6318 Y-10.41 Z-0.0776 I0.0031 J0.0354
N3565 X11.6288 Y-10.4093 Z-0.1165 I0.0062 J0.035
N3570 X11.6259 Y-10.4084 Z-0.1553 I0.0092 J0.0343
N3575 X11.623 Y-10.4072 Z-0.1941 I0.0121 J0.0334
N3580 X11.6202 Y-10.4057 Z-0.2329 I0.015 J0.0322
N3585 X11.6176 Y-10.4041 Z-0.2718 I0.0178 J0.0307
N3590 X11.6137 Y-10.3491 Z-0.3 I0.0204 J0.0291
N3595 X11.6623 Y-10.4009 I0.0243 J-0.0259
N3600 X11.6137 Y-10.3491 I-0.0243 J0.0259
N3605 X11.6131 Y-10.3668 I0.0086 J-0.0091
N3610 G1 X11.6174 Y-10.3713
N3615 X11.6193 Y-10.3734 Z-0.2997
N3620 X11.6211 Y-10.3753 Z-0.2988
N3625 X11.6228 Y-10.377 Z-0.2973
N3630 X11.6241 Y-10.3785 Z-0.2953
N3635 X11.6251 Y-10.3796 Z-0.2929
N3640 X11.6258 Y-10.3802 Z-0.2903
N3645 X11.626 Y-10.3805 Z-0.2875
N3650 G0 Z0.2
N3655 G1 X11.9605 Y-9.1782 F400.
N3660 G0 Z0.08
N3665 G1 Z0.0125 F45.
N3670 G19 G3 Y-9.1657 Z0. J0.0125 K0.
N3675 G1 Y-9.1595
N3680 G17 G3 X11.948 Y-9.147 I-0.0125 J0.
N3685 X11.9511 Y-9.1471 Z-0.0388 I0. J-0.0355
N3690 X11.9542 Y-9.1475 Z-0.0776 I-0.0031 J-0.0354
N3695 X11.9572 Y-9.1482 Z-0.1165 I-0.0062 J-0.035
N3700 X11.9601 Y-9.1491 Z-0.1553 I-0.0092 J-0.0343
N3705 X11.963 Y-9.1503 Z-0.1941 I-0.0121 J-0.0334
N3710 X11.9657 Y-9.1518 Z-0.2329 I-0.015 J-0.0322
N3715 X11.9684 Y-9.1534 Z-0.2718 I-0.0178 J-0.0307
N3720 X11.9723 Y-9.2084 Z-0.3 I-0.0204 J-0.0291
N3725 X11.9237 Y-9.1566 I-0.0243 J0.0259
N3730 X11.9723 Y-9.2084 I0.0243 J-0.0259
N3735 X11.9729 Y-9.1907 I-0.0086 J0.0091
N3740 G1 X11.9686 Y-9.1862
N3745 X11.9667 Y-9.1841 Z-0.2997
N3750 X11.9649 Y-9.1822 Z-0.2988
N3755 X11.9632 Y-9.1805 Z-0.2973
N3760 X11.9619 Y-9.179 Z-0.2953
N3765 X11.9609 Y-9.1779 Z-0.2929
N3770 X11.9602 Y-9.1773 Z-0.2903
N3775 X11.96 Y-9.177 Z-0.2875
N3780 G0 Z0.2
N3785 G1 X15.2705 Y-10.3708 F400.
N3790 G0 Z0.08
N3795 G1 Z0.0125 F45.
N3800 G19 G3 Y-10.3582 Z0. J0.0125 K0.
N3805 G1 Y-10.352
N3810 G17 G3 X15.258 Y-10.3395 I-0.0125 J0.
N3815 X15.2611 Y-10.3396 Z-0.0388 I0. J-0.0355
N3820 X15.2642 Y-10.34 Z-0.0776 I-0.0031 J-0.0354
N3825 X15.2672 Y-10.3407 Z-0.1165 I-0.0062 J-0.035
N3830 X15.2701 Y-10.3416 Z-0.1553 I-0.0092 J-0.0343
N3835 X15.273 Y-10.3428 Z-0.1941 I-0.0121 J-0.0334
N3840 X15.2758 Y-10.3443 Z-0.2329 I-0.015 J-0.0322
N3845 X15.2784 Y-10.3459 Z-0.2718 I-0.0178 J-0.0307
N3850 X15.2823 Y-10.4009 Z-0.3 I-0.0204 J-0.0291
N3855 X15.2337 Y-10.3491 I-0.0243 J0.0259
N3860 X15.2823 Y-10.4009 I0.0243 J-0.0259
N3865 X15.2829 Y-10.3832 I-0.0086 J0.0091
N3870 G1 X15.2786 Y-10.3787
N3875 X15.2767 Y-10.3766 Z-0.2997
N3880 X15.2749 Y-10.3747 Z-0.2988
N3885 X15.2732 Y-10.373 Z-0.2973
N3890 X15.2719 Y-10.3715 Z-0.2953
N3895 X15.2709 Y-10.3704 Z-0.2929
N3900 X15.2702 Y-10.3698 Z-0.2903
N3905 X15.27 Y-10.3695 Z-0.2875
N3910 G0 Z0.2
N3915 G1 X14.9355 Y-9.1867 F400.
N3920 G0 Z0.08
N3925 G1 Z0.0125 F45.
N3930 G19 G2 Y-9.1992 Z0. J-0.0125 K0.
N3935 G1 Y-9.2055
N3940 G17 G3 X14.948 Y-9.218 I0.0125 J0.
N3945 X14.9449 Y-9.2179 Z-0.0388 I0. J0.0355
N3950 X14.9418 Y-9.2175 Z-0.0776 I0.0031 J0.0354
N3955 X14.9388 Y-9.2168 Z-0.1165 I0.0062 J0.035
N3960 X14.9359 Y-9.2159 Z-0.1553 I0.0092 J0.0343
N3965 X14.933 Y-9.2147 Z-0.1941 I0.0121 J0.0334
N3970 X14.9302 Y-9.2132 Z-0.2329 I0.015 J0.0322
N3975 X14.9276 Y-9.2116 Z-0.2718 I0.0178 J0.0307
N3980 X14.9237 Y-9.1566 Z-0.3 I0.0204 J0.0291
N3985 X14.9723 Y-9.2084 I0.0243 J-0.0259
N3990 X14.9237 Y-9.1566 I-0.0243 J0.0259
N3995 X14.9231 Y-9.1743 I0.0086 J-0.0091
N4000 G1 X14.9274 Y-9.1788
N4005 X14.9293 Y-9.1809 Z-0.2997
N4010 X14.9311 Y-9.1828 Z-0.2988
N4015 X14.9328 Y-9.1845 Z-0.2973
N4020 X14.9341 Y-9.186 Z-0.2953
N4025 X14.9351 Y-9.1871 Z-0.2929
N4030 X14.9358 Y-9.1877 Z-0.2903
N4035 X14.936 Y-9.188 Z-0.2875
N4040 G0 Z0.2
N4045 G1 X14.018 Y-7.317 F400.
N4050 G0 Z0.0675
N4055 G1 Z0. F45.
N4060 X14.019 Y-7.316
N4065 X14.0187 Y-7.3153
N4070 X14.018 Y-7.315
N4075 X14.017 Y-7.3153 Z-0.0034
N4080 X14.0162 Y-7.3161 Z-0.0068
N4085 X14.016 Y-7.3171 Z-0.0102
N4090 X14.0164 Y-7.3181 Z-0.0136
N4095 X14.0172 Y-7.3188 Z-0.017
N4100 X14.0182 Y-7.319 Z-0.0205
N4105 X14.0192 Y-7.3186 Z-0.0239
N4110 X14.0199 Y-7.3177 Z-0.0273
N4115 X14.02 Y-7.3166 Z-0.0307
N4120 X14.0195 Y-7.3157 Z-0.0341
N4125 X14.0186 Y-7.3151 Z-0.0375
N4130 X14.0175 Z-0.0409
N4135 X14.0166 Y-7.3156 Z-0.0443
N4140 X14.0161 Y-7.3165 Z-0.0477
N4145 Y-7.3176 Z-0.0511
N4150 X14.0167 Y-7.3185 Z-0.0545
N4155 X14.0177 Y-7.319 Z-0.058
N4160 X14.0187 Y-7.3189 Z-0.0614
N4165 X14.0196 Y-7.3182 Z-0.0648
N4170 X14.02 Y-7.3172 Z-0.0682
N4175 X14.0198 Y-7.3162 Z-0.0716
N4180 X14.0191 Y-7.3153 Z-0.075
N4185 X14.0181 Y-7.315 Z-0.0784
N4190 X14.0171 Y-7.3152 Z-0.0818
N4195 X14.0163 Y-7.316 Z-0.0852
N4200 X14.016 Y-7.317 Z-0.0886
N4205 X14.0163 Y-7.3181 Z-0.092
N4210 X14.0171 Y-7.3188 Z-0.0955
N4215 X14.0181 Y-7.319 Z-0.0989
N4220 X14.0192 Y-7.3186 Z-0.1023
N4225 X14.0198 Y-7.3178 Z-0.1057
N4230 X14.02 Y-7.3167 Z-0.1091
N4235 X14.0196 Y-7.3157 Z-0.1125
N4240 X14.0187 Y-7.3151 Z-0.1159
N4245 X14.0176 Y-7.315 Z-0.1193
N4250 X14.0167 Y-7.3155 Z-0.1227
N4255 X14.0161 Y-7.3164 Z-0.1261
N4260 Y-7.3175 Z-0.1295
N4265 X14.0166 Y-7.3184 Z-0.133
N4270 X14.0175 Y-7.3189 Z-0.1364
N4275 X14.0186 Z-0.1398
N4280 X14.0195 Y-7.3183 Z-0.1432
N4285 X14.02 Y-7.3173 Z-0.1466
N4290 X14.0199 Y-7.3163 Z-0.15
N4295 X14.0192 Y-7.3154 Z-0.1534
N4300 X14.0182 Y-7.315 Z-0.1568
N4305 X14.0172 Y-7.3152 Z-0.1602
N4310 X14.0163 Y-7.3159 Z-0.1636
N4315 X14.016 Y-7.3169 Z-0.167
N4320 X14.0162 Y-7.318 Z-0.1705
N4325 X14.017 Y-7.3187 Z-0.1739
N4330 X14.018 Y-7.319 Z-0.1773
N4335 X14.0191 Y-7.3187 Z-0.1807
N4340 X14.0198 Y-7.3179 Z-0.1841
N4345 X14.02 Y-7.3168 Z-0.1875
N4350 X14.0196 Y-7.3158 Z-0.1909
N4355 X14.0188 Y-7.3152 Z-0.1943
N4360 X14.0177 Y-7.315 Z-0.1977
N4365 X14.0167 Y-7.3154 Z-0.2011
N4370 X14.0161 Y-7.3163 Z-0.2045
N4375 X14.016 Y-7.3174 Z-0.208
N4380 X14.0165 Y-7.3184 Z-0.2114
N4385 X14.0174 Y-7.3189 Z-0.2148
N4390 X14.0185 Z-0.2182
N4395 X14.0194 Y-7.3184 Z-0.2216
N4400 X14.02 Y-7.3174 Z-0.225
N4405 X14.0199 Y-7.3164 Z-0.2284
N4410 X14.0193 Y-7.3155 Z-0.2318
N4415 X14.0183 Y-7.315 Z-0.2352
N4420 X14.0172 Y-7.3151 Z-0.2386
N4425 X14.0164 Y-7.3158 Z-0.242
N4430 X14.016 Y-7.3168 Z-0.2455
N4435 X14.0162 Y-7.3179 Z-0.2489
N4440 X14.0169 Y-7.3187 Z-0.2523
N4445 X14.0179 Y-7.319 Z-0.2557
N4450 X14.019 Y-7.3187 Z-0.2591
N4455 X14.0197 Y-7.318 Z-0.2625
N4460 X14.02 Y-7.3169 Z-0.2659
N4465 X14.0197 Y-7.3159 Z-0.2693
N4470 X14.0189 Y-7.3152 Z-0.2727
N4475 X14.0178 Y-7.315 Z-0.2761
N4480 X14.0168 Y-7.3154 Z-0.2795
N4485 X14.0162 Y-7.3162 Z-0.283
N4490 X14.016 Y-7.3173 Z-0.2864
N4495 X14.0165 Y-7.3183 Z-0.2898
N4500 X14.0173 Y-7.3189 Z-0.2932
N4505 X14.0184 Y-7.319 Z-0.2966
N4510 X14.0194 Y-7.3185 Z-0.3
N4515 G3 X14.0166 Y-7.3155 I-0.0014 J0.0015
N4520 X14.0194 Y-7.3185 I0.0014 J-0.0015
N4525 G1 X14.0197 Y-7.3178
N4530 X14.0194 Y-7.317
N4535 X14.018
N4540 G0 Z0.2
N4545 X12.878
N4550 Z0.0675
N4555 G1 Z0. F45.
N4560 X12.879 Y-7.316
N4565 X12.8787 Y-7.3153
N4570 X12.878 Y-7.315
N4575 X12.877 Y-7.3153 Z-0.0034
N4580 X12.8762 Y-7.3161 Z-0.0068
N4585 X12.876 Y-7.3171 Z-0.0102
N4590 X12.8764 Y-7.3181 Z-0.0136
N4595 X12.8772 Y-7.3188 Z-0.017
N4600 X12.8782 Y-7.319 Z-0.0205
N4605 X12.8792 Y-7.3186 Z-0.0239
N4610 X12.8799 Y-7.3177 Z-0.0273
N4615 X12.88 Y-7.3166 Z-0.0307
N4620 X12.8795 Y-7.3157 Z-0.0341
N4625 X12.8786 Y-7.3151 Z-0.0375
N4630 X12.8775 Z-0.0409
N4635 X12.8766 Y-7.3156 Z-0.0443
N4640 X12.8761 Y-7.3165 Z-0.0477
N4645 Y-7.3176 Z-0.0511
N4650 X12.8767 Y-7.3185 Z-0.0545
N4655 X12.8777 Y-7.319 Z-0.058
N4660 X12.8787 Y-7.3189 Z-0.0614
N4665 X12.8796 Y-7.3182 Z-0.0648
N4670 X12.88 Y-7.3172 Z-0.0682
N4675 X12.8798 Y-7.3162 Z-0.0716
N4680 X12.8791 Y-7.3153 Z-0.075
N4685 X12.8781 Y-7.315 Z-0.0784
N4690 X12.8771 Y-7.3152 Z-0.0818
N4695 X12.8763 Y-7.316 Z-0.0852
N4700 X12.876 Y-7.317 Z-0.0886
N4705 X12.8763 Y-7.3181 Z-0.092
N4710 X12.8771 Y-7.3188 Z-0.0955
N4715 X12.8781 Y-7.319 Z-0.0989
N4720 X12.8792 Y-7.3186 Z-0.1023
N4725 X12.8798 Y-7.3178 Z-0.1057
N4730 X12.88 Y-7.3167 Z-0.1091
N4735 X12.8796 Y-7.3157 Z-0.1125
N4740 X12.8787 Y-7.3151 Z-0.1159
N4745 X12.8776 Y-7.315 Z-0.1193
N4750 X12.8767 Y-7.3155 Z-0.1227
N4755 X12.8761 Y-7.3164 Z-0.1261
N4760 Y-7.3175 Z-0.1295
N4765 X12.8766 Y-7.3184 Z-0.133
N4770 X12.8775 Y-7.3189 Z-0.1364
N4775 X12.8786 Z-0.1398
N4780 X12.8795 Y-7.3183 Z-0.1432
N4785 X12.88 Y-7.3173 Z-0.1466
N4790 X12.8799 Y-7.3163 Z-0.15
N4795 X12.8792 Y-7.3154 Z-0.1534
N4800 X12.8782 Y-7.315 Z-0.1568
N4805 X12.8772 Y-7.3152 Z-0.1602
N4810 X12.8763 Y-7.3159 Z-0.1636
N4815 X12.876 Y-7.3169 Z-0.167
N4820 X12.8762 Y-7.318 Z-0.1705
N4825 X12.877 Y-7.3187 Z-0.1739
N4830 X12.878 Y-7.319 Z-0.1773
N4835 X12.8791 Y-7.3187 Z-0.1807
N4840 X12.8798 Y-7.3179 Z-0.1841
N4845 X12.88 Y-7.3168 Z-0.1875
N4850 X12.8796 Y-7.3158 Z-0.1909
N4855 X12.8788 Y-7.3152 Z-0.1943
N4860 X12.8777 Y-7.315 Z-0.1977
N4865 X12.8767 Y-7.3155 Z-0.2011
N4870 X12.8761 Y-7.3163 Z-0.2045
N4875 X12.876 Y-7.3174 Z-0.208
N4880 X12.8765 Y-7.3184 Z-0.2114
N4885 X12.8774 Y-7.3189 Z-0.2148
N4890 X12.8785 Z-0.2182
N4895 X12.8794 Y-7.3184 Z-0.2216
N4900 X12.88 Y-7.3174 Z-0.225
N4905 X12.8799 Y-7.3164 Z-0.2284
N4910 X12.8793 Y-7.3155 Z-0.2318
N4915 X12.8783 Y-7.315 Z-0.2352
N4920 X12.8772 Y-7.3151 Z-0.2386
N4925 X12.8764 Y-7.3158 Z-0.242
N4930 X12.876 Y-7.3168 Z-0.2455
N4935 X12.8762 Y-7.3179 Z-0.2489
N4940 X12.8769 Y-7.3187 Z-0.2523
N4945 X12.8779 Y-7.319 Z-0.2557
N4950 X12.879 Y-7.3187 Z-0.2591
N4955 X12.8797 Y-7.318 Z-0.2625
N4960 X12.88 Y-7.3169 Z-0.2659
N4965 X12.8797 Y-7.3159 Z-0.2693
N4970 X12.8789 Y-7.3152 Z-0.2727
N4975 X12.8778 Y-7.315 Z-0.2761
N4980 X12.8768 Y-7.3154 Z-0.2795
N4985 X12.8762 Y-7.3162 Z-0.283
N4990 X12.876 Y-7.3173 Z-0.2864
N4995 X12.8765 Y-7.3183 Z-0.2898
N5000 X12.8773 Y-7.3189 Z-0.2932
N5005 X12.8784 Y-7.319 Z-0.2966
N5010 X12.8794 Y-7.3185 Z-0.3
N5015 G3 X12.8766 Y-7.3155 I-0.0014 J0.0015
N5020 X12.8794 Y-7.3185 I0.0014 J-0.0015
N5025 G1 X12.8797 Y-7.3178
N5030 X12.8794 Y-7.317
N5035 X12.878
N5040 G0 Z0.2
N5045 Y-6.177
N5050 Z0.0675
N5055 G1 Z0. F45.
N5060 X12.877 Y-6.178
N5065 X12.8773 Y-6.1787
N5070 X12.878 Y-6.179
N5075 X12.879 Y-6.1787 Z-0.0034
N5080 X12.8798 Y-6.1779 Z-0.0068
N5085 X12.88 Y-6.1769 Z-0.0102
N5090 X12.8796 Y-6.1759 Z-0.0136
N5095 X12.8788 Y-6.1752 Z-0.017
N5100 X12.8778 Y-6.175 Z-0.0205
N5105 X12.8768 Y-6.1754 Z-0.0239
N5110 X12.8761 Y-6.1763 Z-0.0273
N5115 X12.876 Y-6.1774 Z-0.0307
N5120 X12.8765 Y-6.1783 Z-0.0341
N5125 X12.8774 Y-6.1789 Z-0.0375
N5130 X12.8785 Z-0.0409
N5135 X12.8794 Y-6.1784 Z-0.0443
N5140 X12.8799 Y-6.1775 Z-0.0477
N5145 Y-6.1764 Z-0.0511
N5150 X12.8793 Y-6.1755 Z-0.0545
N5155 X12.8783 Y-6.175 Z-0.058
N5160 X12.8773 Y-6.1751 Z-0.0614
N5165 X12.8764 Y-6.1758 Z-0.0648
N5170 X12.876 Y-6.1768 Z-0.0682
N5175 X12.8762 Y-6.1778 Z-0.0716
N5180 X12.8769 Y-6.1787 Z-0.075
N5185 X12.8779 Y-6.179 Z-0.0784
N5190 X12.8789 Y-6.1788 Z-0.0818
N5195 X12.8797 Y-6.178 Z-0.0852
N5200 X12.88 Y-6.177 Z-0.0886
N5205 X12.8797 Y-6.176 Z-0.092
N5210 X12.8789 Y-6.1752 Z-0.0955
N5215 X12.8779 Y-6.175 Z-0.0989
N5220 X12.8768 Y-6.1754 Z-0.1023
N5225 X12.8762 Y-6.1762 Z-0.1057
N5230 X12.876 Y-6.1773 Z-0.1091
N5235 X12.8764 Y-6.1783 Z-0.1125
N5240 X12.8773 Y-6.1789 Z-0.1159
N5245 X12.8784 Y-6.179 Z-0.1193
N5250 X12.8793 Y-6.1785 Z-0.1227
N5255 X12.8799 Y-6.1776 Z-0.1261
N5260 Y-6.1765 Z-0.1295
N5265 X12.8794 Y-6.1756 Z-0.133
N5270 X12.8785 Y-6.1751 Z-0.1364
N5275 X12.8774 Z-0.1398
N5280 X12.8765 Y-6.1757 Z-0.1432
N5285 X12.876 Y-6.1767 Z-0.1466
N5290 X12.8761 Y-6.1777 Z-0.15
N5295 X12.8768 Y-6.1786 Z-0.1534
N5300 X12.8778 Y-6.179 Z-0.1568
N5305 X12.8788 Y-6.1788 Z-0.1602
N5310 X12.8797 Y-6.1781 Z-0.1636
N5315 X12.88 Y-6.1771 Z-0.167
N5320 X12.8798 Y-6.176 Z-0.1705
N5325 X12.879 Y-6.1753 Z-0.1739
N5330 X12.878 Y-6.175 Z-0.1773
N5335 X12.8769 Y-6.1753 Z-0.1807
N5340 X12.8762 Y-6.1761 Z-0.1841
N5345 X12.876 Y-6.1772 Z-0.1875
N5350 X12.8764 Y-6.1782 Z-0.1909
N5355 X12.8772 Y-6.1788 Z-0.1943
N5360 X12.8783 Y-6.179 Z-0.1977
N5365 X12.8793 Y-6.1785 Z-0.2011
N5370 X12.8799 Y-6.1777 Z-0.2045
N5375 X12.88 Y-6.1766 Z-0.208
N5380 X12.8795 Y-6.1756 Z-0.2114
N5385 X12.8786 Y-6.1751 Z-0.2148
N5390 X12.8775 Z-0.2182
N5395 X12.8766 Y-6.1756 Z-0.2216
N5400 X12.876 Y-6.1766 Z-0.225
N5405 X12.8761 Y-6.1776 Z-0.2284
N5410 X12.8767 Y-6.1785 Z-0.2318
N5415 X12.8777 Y-6.179 Z-0.2352
N5420 X12.8788 Y-6.1789 Z-0.2386
N5425 X12.8796 Y-6.1782 Z-0.242
N5430 X12.88 Y-6.1772 Z-0.2455
N5435 X12.8798 Y-6.1761 Z-0.2489
N5440 X12.8791 Y-6.1753 Z-0.2523
N5445 X12.8781 Y-6.175 Z-0.2557
N5450 X12.877 Y-6.1753 Z-0.2591
N5455 X12.8763 Y-6.176 Z-0.2625
N5460 X12.876 Y-6.1771 Z-0.2659
N5465 X12.8763 Y-6.1781 Z-0.2693
N5470 X12.8771 Y-6.1788 Z-0.2727
N5475 X12.8782 Y-6.179 Z-0.2761
N5480 X12.8792 Y-6.1786 Z-0.2795
N5485 X12.8798 Y-6.1778 Z-0.283
N5490 X12.88 Y-6.1767 Z-0.2864
N5495 X12.8795 Y-6.1757 Z-0.2898
N5500 X12.8787 Y-6.1751 Z-0.2932
N5505 X12.8776 Y-6.175 Z-0.2966
N5510 X12.8766 Y-6.1755 Z-0.3
N5515 G3 X12.8794 Y-6.1785 I0.0014 J-0.0015
N5520 X12.8766 Y-6.1755 I-0.0014 J0.0015
N5525 G1 X12.8763 Y-6.1762
N5530 X12.8766 Y-6.177
N5535 X12.878
N5540 G0 Z0.2
N5545 X14.018
N5550 Z0.0675
N5555 G1 Z0. F45.
N5560 X14.017 Y-6.178
N5565 X14.0173 Y-6.1787
N5570 X14.018 Y-6.179
N5575 X14.019 Y-6.1787 Z-0.0034
N5580 X14.0198 Y-6.1779 Z-0.0068
N5585 X14.02 Y-6.1769 Z-0.0102
N5590 X14.0196 Y-6.1759 Z-0.0136
N5595 X14.0188 Y-6.1752 Z-0.017
N5600 X14.0178 Y-6.175 Z-0.0205
N5605 X14.0168 Y-6.1754 Z-0.0239
N5610 X14.0161 Y-6.1763 Z-0.0273
N5615 X14.016 Y-6.1774 Z-0.0307
N5620 X14.0165 Y-6.1783 Z-0.0341
N5625 X14.0174 Y-6.1789 Z-0.0375
N5630 X14.0185 Z-0.0409
N5635 X14.0194 Y-6.1784 Z-0.0443
N5640 X14.0199 Y-6.1775 Z-0.0477
N5645 Y-6.1764 Z-0.0511
N5650 X14.0193 Y-6.1755 Z-0.0545
N5655 X14.0183 Y-6.175 Z-0.058
N5660 X14.0173 Y-6.1751 Z-0.0614
N5665 X14.0164 Y-6.1758 Z-0.0648
N5670 X14.016 Y-6.1768 Z-0.0682
N5675 X14.0162 Y-6.1778 Z-0.0716
N5680 X14.0169 Y-6.1787 Z-0.075
N5685 X14.0179 Y-6.179 Z-0.0784
N5690 X14.0189 Y-6.1788 Z-0.0818
N5695 X14.0197 Y-6.178 Z-0.0852
N5700 X14.02 Y-6.177 Z-0.0886
N5705 X14.0197 Y-6.1759 Z-0.092
N5710 X14.0189 Y-6.1752 Z-0.0955
N5715 X14.0179 Y-6.175 Z-0.0989
N5720 X14.0168 Y-6.1754 Z-0.1023
N5725 X14.0162 Y-6.1762 Z-0.1057
N5730 X14.016 Y-6.1773 Z-0.1091
N5735 X14.0164 Y-6.1783 Z-0.1125
N5740 X14.0173 Y-6.1789 Z-0.1159
N5745 X14.0184 Y-6.179 Z-0.1193
N5750 X14.0193 Y-6.1785 Z-0.1227
N5755 X14.0199 Y-6.1776 Z-0.1261
N5760 Y-6.1765 Z-0.1295
N5765 X14.0194 Y-6.1756 Z-0.133
N5770 X14.0185 Y-6.1751 Z-0.1364
N5775 X14.0174 Z-0.1398
N5780 X14.0165 Y-6.1757 Z-0.1432
N5785 X14.016 Y-6.1767 Z-0.1466
N5790 X14.0161 Y-6.1777 Z-0.15
N5795 X14.0168 Y-6.1786 Z-0.1534
N5800 X14.0178 Y-6.179 Z-0.1568
N5805 X14.0188 Y-6.1788 Z-0.1602
N5810 X14.0197 Y-6.1781 Z-0.1636
N5815 X14.02 Y-6.1771 Z-0.167
N5820 X14.0198 Y-6.176 Z-0.1705
N5825 X14.019 Y-6.1753 Z-0.1739
N5830 X14.018 Y-6.175 Z-0.1773
N5835 X14.0169 Y-6.1753 Z-0.1807
N5840 X14.0162 Y-6.1761 Z-0.1841
N5845 X14.016 Y-6.1772 Z-0.1875
N5850 X14.0164 Y-6.1782 Z-0.1909
N5855 X14.0172 Y-6.1788 Z-0.1943
N5860 X14.0183 Y-6.179 Z-0.1977
N5865 X14.0193 Y-6.1785 Z-0.2011
N5870 X14.0199 Y-6.1777 Z-0.2045
N5875 X14.02 Y-6.1766 Z-0.208
N5880 X14.0195 Y-6.1756 Z-0.2114
N5885 X14.0186 Y-6.1751 Z-0.2148
N5890 X14.0175 Z-0.2182
N5895 X14.0166 Y-6.1756 Z-0.2216
N5900 X14.016 Y-6.1766 Z-0.225
N5905 X14.0161 Y-6.1776 Z-0.2284
N5910 X14.0167 Y-6.1785 Z-0.2318
N5915 X14.0177 Y-6.179 Z-0.2352
N5920 X14.0188 Y-6.1789 Z-0.2386
N5925 X14.0196 Y-6.1782 Z-0.242
N5930 X14.02 Y-6.1772 Z-0.2455
N5935 X14.0198 Y-6.1761 Z-0.2489
N5940 X14.0191 Y-6.1753 Z-0.2523
N5945 X14.0181 Y-6.175 Z-0.2557
N5950 X14.017 Y-6.1753 Z-0.2591
N5955 X14.0163 Y-6.176 Z-0.2625
N5960 X14.016 Y-6.1771 Z-0.2659
N5965 X14.0163 Y-6.1781 Z-0.2693
N5970 X14.0171 Y-6.1788 Z-0.2727
N5975 X14.0182 Y-6.179 Z-0.2761
N5980 X14.0192 Y-6.1786 Z-0.2795
N5985 X14.0198 Y-6.1778 Z-0.283
N5990 X14.02 Y-6.1767 Z-0.2864
N5995 X14.0195 Y-6.1757 Z-0.2898
N6000 X14.0187 Y-6.1751 Z-0.2932
N6005 X14.0176 Y-6.175 Z-0.2966
N6010 X14.0166 Y-6.1755 Z-0.3
N6015 G3 X14.0194 Y-6.1785 I0.0014 J-0.0015
N6020 X14.0166 Y-6.1755 I-0.0014 J0.0015
N6025 G1 X14.0163 Y-6.1762
N6030 X14.0166 Y-6.177
N6035 X14.018
N6040 G0 Z0.2
N6045 G1 X14.5605 Y-4.7388 F400.
N6050 G0 Z0.08
N6055 G1 Z0.0125 F45.
N6060 G19 G3 Y-4.7263 Z0. J0.0125 K0.
N6065 G1 Y-4.72
N6070 G17 G3 X14.548 Y-4.7075 I-0.0125 J0.
N6075 X14.5513 Y-4.7076 Z-0.0388 I0. J-0.0375
N6080 X14.5545 Y-4.7081 Z-0.0776 I-0.0033 J-0.0374
N6085 X14.5577 Y-4.7088 Z-0.1165 I-0.0065 J-0.0369
N6090 X14.5608 Y-4.7098 Z-0.1553 I-0.0097 J-0.0362
N6095 X14.5638 Y-4.711 Z-0.1941 I-0.0128 J-0.0352
N6100 X14.5667 Y-4.7125 Z-0.2329 I-0.0158 J-0.034
N6105 X14.5695 Y-4.7143 Z-0.2718 I-0.0188 J-0.0325
N6110 X14.5737 Y-4.7723 Z-0.3 I-0.0215 J-0.0307
N6115 X14.5223 Y-4.7177 I-0.0257 J0.0273
N6120 X14.5737 Y-4.7723 I0.0257 J-0.0273
N6125 X14.5742 Y-4.7547 I-0.0086 J0.0091
N6130 G1 X14.5699 Y-4.7501
N6135 X14.568 Y-4.7481 Z-0.2997
N6140 X14.5662 Y-4.7462 Z-0.2988
N6145 X14.5646 Y-4.7444 Z-0.2973
N6150 X14.5633 Y-4.743 Z-0.2953
N6155 X14.5622 Y-4.7419 Z-0.2929
N6160 X14.5616 Y-4.7412 Z-0.2903
N6165 X14.5614 Y-4.741 Z-0.2875
N6170 G0 Z0.2
N6175 G1 X13.0605 Y-4.7388 F400.
N6180 G0 Z0.08
N6185 G1 Z0.0125 F45.
N6190 G19 G3 Y-4.7263 Z0. J0.0125 K0.
N6195 G1 Y-4.72
N6200 G17 G3 X13.048 Y-4.7075 I-0.0125 J0.
N6205 X13.0513 Y-4.7076 Z-0.0388 I0. J-0.0375
N6210 X13.0545 Y-4.7081 Z-0.0776 I-0.0033 J-0.0374
N6215 X13.0577 Y-4.7088 Z-0.1165 I-0.0065 J-0.0369
N6220 X13.0608 Y-4.7098 Z-0.1553 I-0.0097 J-0.0362
N6225 X13.0638 Y-4.711 Z-0.1941 I-0.0128 J-0.0352
N6230 X13.0667 Y-4.7125 Z-0.2329 I-0.0158 J-0.034
N6235 X13.0695 Y-4.7143 Z-0.2718 I-0.0188 J-0.0325
N6240 X13.0737 Y-4.7723 Z-0.3 I-0.0215 J-0.0307
N6245 X13.0223 Y-4.7177 I-0.0257 J0.0273
N6250 X13.0737 Y-4.7723 I0.0257 J-0.0273
N6255 X13.0742 Y-4.7547 I-0.0086 J0.0091
N6260 G1 X13.0699 Y-4.7501
N6265 X13.068 Y-4.7481 Z-0.2997
N6270 X13.0662 Y-4.7462 Z-0.2988
N6275 X13.0646 Y-4.7444 Z-0.2973
N6280 X13.0633 Y-4.743 Z-0.2953
N6285 X13.0622 Y-4.7419 Z-0.2929
N6290 X13.0616 Y-4.7412 Z-0.2903
N6295 X13.0614 Y-4.741 Z-0.2875
N6300 G0 Z0.2
N6305 G1 X11.6255 Y-1.6292 F400.
N6310 G0 Z0.08
N6315 G1 Z0.0125 F45.
N6320 G19 G2 Y-1.6418 Z0. J-0.0125 K0.
N6325 G1 Y-1.648
N6330 G17 G3 X11.638 Y-1.6605 I0.0125 J0.
N6335 X11.6349 Y-1.6604 Z-0.0388 I0. J0.0355
N6340 X11.6318 Y-1.66 Z-0.0776 I0.0031 J0.0354
N6345 X11.6288 Y-1.6593 Z-0.1165 I0.0062 J0.035
N6350 X11.6259 Y-1.6584 Z-0.1553 I0.0092 J0.0343
N6355 X11.623 Y-1.6572 Z-0.1941 I0.0121 J0.0334
N6360 X11.6202 Y-1.6557 Z-0.2329 I0.015 J0.0322
N6365 X11.6176 Y-1.6541 Z-0.2718 I0.0177 J0.0307
N6370 X11.6137 Y-1.5991 Z-0.3 I0.0204 J0.0291
N6375 X11.6623 Y-1.6509 I0.0243 J-0.0259
N6380 X11.6137 Y-1.5991 I-0.0243 J0.0259
N6385 X11.6131 Y-1.6168 I0.0086 J-0.0091
N6390 G1 X11.6174 Y-1.6213
N6395 X11.6193 Y-1.6234 Z-0.2997
N6400 X11.6211 Y-1.6253 Z-0.2988
N6405 X11.6228 Y-1.627 Z-0.2973
N6410 X11.6241 Y-1.6285 Z-0.2953
N6415 X11.6251 Y-1.6296 Z-0.2929
N6420 X11.6258 Y-1.6302 Z-0.2903
N6425 X11.626 Y-1.6305 Z-0.2875
N6430 G0 Z0.2
N6435 G1 X13.0355 Y-1.7513 F400.
N6440 G0 Z0.08
N6445 G1 Z0.0125 F45.
N6450 G19 G2 Y-1.7638 Z0. J-0.0125 K0.
N6455 G1 Y-1.77
N6460 G17 G3 X13.048 Y-1.7825 I0.0125 J0.
N6465 X13.0447 Y-1.7824 Z-0.0388 I0. J0.0375
N6470 X13.0415 Y-1.7819 Z-0.0776 I0.0033 J0.0374
N6475 X13.0383 Y-1.7812 Z-0.1165 I0.0065 J0.0369
N6480 X13.0352 Y-1.7802 Z-0.1553 I0.0097 J0.0362
N6485 X13.0322 Y-1.779 Z-0.1941 I0.0128 J0.0352
N6490 X13.0292 Y-1.7775 Z-0.2329 I0.0158 J0.034
N6495 X13.0265 Y-1.7757 Z-0.2718 I0.0187 J0.0325
N6500 X13.0223 Y-1.7177 Z-0.3 I0.0215 J0.0307
N6505 X13.0737 Y-1.7723 I0.0257 J-0.0273
N6510 X13.0223 Y-1.7177 I-0.0257 J0.0273
N6515 X13.0218 Y-1.7353 I0.0086 J-0.0091
N6520 G1 X13.0261 Y-1.7399
N6525 X13.028 Y-1.7419 Z-0.2997
N6530 X13.0298 Y-1.7438 Z-0.2988
N6535 X13.0314 Y-1.7456 Z-0.2973
N6540 X13.0327 Y-1.747 Z-0.2953
N6545 X13.0338 Y-1.7481 Z-0.2929
N6550 X13.0344 Y-1.7488 Z-0.2903
N6555 X13.0346 Y-1.749 Z-0.2875
N6560 G0 Z0.2
N6565 G1 X14.5355 Y-1.7513 F400.
N6570 G0 Z0.08
N6575 G1 Z0.0125 F45.
N6580 G19 G2 Y-1.7638 Z0. J-0.0125 K0.
N6585 G1 Y-1.77
N6590 G17 G3 X14.548 Y-1.7825 I0.0125 J0.
N6595 X14.5447 Y-1.7824 Z-0.0388 I0. J0.0375
N6600 X14.5415 Y-1.7819 Z-0.0776 I0.0033 J0.0374
N6605 X14.5383 Y-1.7812 Z-0.1165 I0.0065 J0.0369
N6610 X14.5352 Y-1.7802 Z-0.1553 I0.0097 J0.0362
N6615 X14.5322 Y-1.779 Z-0.1941 I0.0128 J0.0352
N6620 X14.5292 Y-1.7775 Z-0.2329 I0.0158 J0.034
N6625 X14.5265 Y-1.7757 Z-0.2718 I0.0188 J0.0325
N6630 X14.5223 Y-1.7177 Z-0.3 I0.0215 J0.0307
N6635 X14.5737 Y-1.7723 I0.0257 J-0.0273
N6640 X14.5223 Y-1.7177 I-0.0257 J0.0273
N6645 X14.5218 Y-1.7353 I0.0086 J-0.0091
N6650 G1 X14.5261 Y-1.7399
N6655 X14.528 Y-1.7419 Z-0.2997
N6660 X14.5298 Y-1.7438 Z-0.2988
N6665 X14.5314 Y-1.7456 Z-0.2973
N6670 X14.5327 Y-1.747 Z-0.2953
N6675 X14.5338 Y-1.7481 Z-0.2929
N6680 X14.5344 Y-1.7488 Z-0.2903
N6685 X14.5346 Y-1.749 Z-0.2875
N6690 G0 Z0.2
N6695 G1 X15.2455 Y-1.6292 F400.
N6700 G0 Z0.08
N6705 G1 Z0.0125 F45.
N6710 G19 G2 Y-1.6418 Z0. J-0.0125 K0.
N6715 G1 Y-1.648
N6720 G17 G3 X15.258 Y-1.6605 I0.0125 J0.
N6725 X15.2549 Y-1.6604 Z-0.0388 I0. J0.0355
N6730 X15.2518 Y-1.66 Z-0.0776 I0.0031 J0.0354
N6735 X15.2488 Y-1.6593 Z-0.1165 I0.0062 J0.035
N6740 X15.2459 Y-1.6584 Z-0.1553 I0.0092 J0.0343
N6745 X15.243 Y-1.6572 Z-0.1941 I0.0121 J0.0334
N6750 X15.2402 Y-1.6557 Z-0.2329 I0.015 J0.0322
N6755 X15.2376 Y-1.6541 Z-0.2718 I0.0177 J0.0307
N6760 X15.2337 Y-1.5991 Z-0.3 I0.0204 J0.0291
N6765 X15.2823 Y-1.6509 I0.0243 J-0.0259
N6770 X15.2337 Y-1.5991 I-0.0243 J0.0259
N6775 X15.2331 Y-1.6168 I0.0086 J-0.0091
N6780 G1 X15.2374 Y-1.6213
N6785 X15.2393 Y-1.6234 Z-0.2997
N6790 X15.2411 Y-1.6253 Z-0.2988
N6795 X15.2428 Y-1.627 Z-0.2973
N6800 X15.2441 Y-1.6285 Z-0.2953
N6805 X15.2451 Y-1.6296 Z-0.2929
N6810 X15.2458 Y-1.6302 Z-0.2903
N6815 X15.246 Y-1.6305 Z-0.2875
N6820 G0 Z0.2
N6825 G1 X19.0065 Y-5.2763 F400.
N6830 G0 Z0.08
N6835 G1 Z0.0125 F45.
N6840 G19 G2 Y-5.2887 Z0. J-0.0125 K0.
N6845 G1 Y-5.295
N6850 G17 G3 X19.019 Y-5.3075 I0.0125 J0.
N6855 X19.0136 Y-5.3073 Z-0.0388 I0. J0.0625
N6860 X19.0081 Y-5.3066 Z-0.0776 I0.0054 J0.0623
N6865 X19.0028 Y-5.3054 Z-0.1165 I0.0109 J0.0616
N6870 X18.9976 Y-5.3037 Z-0.1553 I0.0162 J0.0604
N6875 X18.9926 Y-5.3016 Z-0.1941 I0.0214 J0.0587
N6880 X18.9878 Y-5.2991 Z-0.2329 I0.0264 J0.0566
N6885 X18.9832 Y-5.2962 Z-0.2718 I0.0313 J0.0541
N6890 X18.9762 Y-5.1994 Z-0.3 I0.0358 J0.0512
N6895 X19.0618 Y-5.2906 I0.0428 J-0.0456
N6900 X18.9762 Y-5.1994 I-0.0428 J0.0456
N6905 X18.9757 Y-5.2171 I0.0086 J-0.0091
N6910 G1 X18.9799 Y-5.2217
N6915 X18.9818 Y-5.2237 Z-0.2997
N6920 X18.9837 Y-5.2256 Z-0.2988
N6925 X18.9853 Y-5.2273 Z-0.2973
N6930 X18.9866 Y-5.2288 Z-0.2953
N6935 X18.9876 Y-5.2299 Z-0.2929
N6940 X18.9883 Y-5.2305 Z-0.2903
N6945 X18.9885 Y-5.2308 Z-0.2875
N6950 G0 Z0.2
N6955 G1 X19.0315 Y-9.2138 F400.
N6960 G0 Z0.08
N6965 G1 Z0.0125 F45.
N6970 G19 G3 Y-9.2012 Z0. J0.0125 K0.
N6975 G1 Y-9.195
N6980 G17 G3 X19.019 Y-9.1825 I-0.0125 J0.
N6985 X19.0244 Y-9.1827 Z-0.0388 I0. J-0.0625
N6990 X19.0299 Y-9.1834 Z-0.0776 I-0.0054 J-0.0623
N6995 X19.0352 Y-9.1846 Z-0.1165 I-0.0109 J-0.0616
N7000 X19.0404 Y-9.1863 Z-0.1553 I-0.0162 J-0.0604
N7005 X19.0454 Y-9.1884 Z-0.1941 I-0.0214 J-0.0587
N7010 X19.0503 Y-9.1909 Z-0.2329 I-0.0264 J-0.0566
N7015 X19.0548 Y-9.1938 Z-0.2718 I-0.0312 J-0.0541
N7020 X19.0618 Y-9.2906 Z-0.3 I-0.0358 J-0.0512
N7025 X18.9762 Y-9.1994 I-0.0428 J0.0456
N7030 X19.0618 Y-9.2906 I0.0428 J-0.0456
N7035 X19.0623 Y-9.2729 I-0.0086 J0.0091
N7040 G1 X19.0581 Y-9.2683
N7045 X19.0562 Y-9.2663 Z-0.2997
N7050 X19.0543 Y-9.2644 Z-0.2988
N7055 X19.0527 Y-9.2627 Z-0.2973
N7060 X19.0514 Y-9.2612 Z-0.2953
N7065 X19.0504 Y-9.2601 Z-0.2929
N7070 X19.0497 Y-9.2595 Z-0.2903
N7075 X19.0495 Y-9.2592 Z-0.2875
N7080 G0 Z0.2
N7085 G1 X24.7855 Y-9.2138 F400.
N7090 G0 Z0.08
N7095 G1 Z0.0125 F45.
N7100 G19 G3 Y-9.2012 Z0. J0.0125 K0.
N7105 G1 Y-9.195
N7110 G17 G3 X24.773 Y-9.1825 I-0.0125 J0.
N7115 X24.7784 Y-9.1827 Z-0.0388 I0. J-0.0625
N7120 X24.7839 Y-9.1834 Z-0.0776 I-0.0054 J-0.0623
N7125 X24.7892 Y-9.1846 Z-0.1165 I-0.0109 J-0.0616
N7130 X24.7944 Y-9.1863 Z-0.1553 I-0.0162 J-0.0604
N7135 X24.7994 Y-9.1884 Z-0.1941 I-0.0214 J-0.0587
N7140 X24.8042 Y-9.1909 Z-0.2329 I-0.0264 J-0.0566
N7145 X24.8088 Y-9.1938 Z-0.2718 I-0.0313 J-0.0541
N7150 X24.8158 Y-9.2906 Z-0.3 I-0.0358 J-0.0512
N7155 X24.7302 Y-9.1994 I-0.0428 J0.0456
N7160 X24.8158 Y-9.2906 I0.0428 J-0.0456
N7165 X24.8163 Y-9.2729 I-0.0086 J0.0091
N7170 G1 X24.8121 Y-9.2683
N7175 X24.8102 Y-9.2663 Z-0.2997
N7180 X24.8083 Y-9.2644 Z-0.2988
N7185 X24.8067 Y-9.2627 Z-0.2973
N7190 X24.8054 Y-9.2612 Z-0.2953
N7195 X24.8044 Y-9.2601 Z-0.2929
N7200 X24.8037 Y-9.2595 Z-0.2903
N7205 X24.8035 Y-9.2592 Z-0.2875
N7210 G0 Z0.2
N7215 G1 X26.4355 Y-11.2512 F400.
N7220 G0 Z0.08
N7225 G1 Z0.0125 F45.
N7230 G19 G2 Y-11.2637 Z0. J-0.0125 K0.
N7235 G1 Y-11.27
N7240 G17 G3 X26.448 Y-11.2825 I0.0125 J0.
N7245 X26.4449 Y-11.2824 Z-0.0388 I0. J0.0355
N7250 X26.4714 Y-11.2203 Z-0.0545 I0.0031 J0.0354
N7255 X26.4736 Y-11.2224 Z-0.0934 I-0.0234 J-0.0267
N7260 X26.4128 Y-11.2517 Z-0.1091 I-0.0256 J-0.0246
N7265 X26.456 Y-11.2124 Z-0.1364 I0.0352 J0.0047
N7270 X26.4775 Y-11.2667 Z-0.1636 I-0.008 J-0.0346
N7275 X26.4757 Y-11.2692 Z-0.2025 I-0.0295 J0.0197
N7280 X26.4737 Y-11.2715 Z-0.2413 I-0.0277 J0.0222
N7285 X26.4714 Y-11.2737 Z-0.2801 I-0.0257 J0.0245
N7290 X26.4237 Y-11.2211 Z-0.3 I-0.0234 J0.0267
N7295 X26.4723 Y-11.2729 I0.0243 J-0.0259
N7300 X26.4237 Y-11.2211 I-0.0243 J0.0259
N7305 X26.4231 Y-11.2388 I0.0086 J-0.0091
N7310 G1 X26.4274 Y-11.2433
N7315 X26.4293 Y-11.2454 Z-0.2997
N7320 X26.4311 Y-11.2473 Z-0.2988
N7325 X26.4328 Y-11.249 Z-0.2973
N7330 X26.4341 Y-11.2505 Z-0.2953
N7335 X26.4351 Y-11.2516 Z-0.2929
N7340 X26.4358 Y-11.2522 Z-0.2903
N7345 X26.436 Y-11.2525 Z-0.2875
N7350 G0 Z0.2
N7355 G1 X26.4355 Y-10.7513 F400.
N7360 G0 Z0.08
N7365 G1 Z0.0125 F45.
N7370 G19 G2 Y-10.7638 Z0. J-0.0125 K0.
N7375 G1 Y-10.77
N7380 G17 G3 X26.448 Y-10.7825 I0.0125 J0.
N7385 X26.4148 Y-10.7345 Z-0.0273 I0. J0.0355
N7390 X26.4714 Y-10.7203 Z-0.0545 I0.0332 J-0.0125
N7395 X26.4736 Y-10.7224 Z-0.0934 I-0.0234 J-0.0267
N7400 X26.4128 Y-10.7517 Z-0.1091 I-0.0256 J-0.0246
N7405 X26.456 Y-10.7124 Z-0.1364 I0.0352 J0.0047
N7410 X26.459 Y-10.7133 Z-0.1752 I-0.008 J-0.0346
N7415 X26.4192 Y-10.7677 Z-0.1909 I-0.011 J-0.0337
N7420 X26.4175 Y-10.7651 Z-0.2297 I0.0288 J0.0207
N7425 X26.416 Y-10.7624 Z-0.2686 I0.0305 J0.0181
N7430 X26.4237 Y-10.7211 Z-0.3 I0.032 J0.0154
N7435 X26.4723 Y-10.7729 I0.0243 J-0.0259
N7440 X26.4237 Y-10.7211 I-0.0243 J0.0259
N7445 X26.4231 Y-10.7388 I0.0086 J-0.0091
N7450 G1 X26.4274 Y-10.7433
N7455 X26.4293 Y-10.7454 Z-0.2997
N7460 X26.4311 Y-10.7473 Z-0.2988
N7465 X26.4328 Y-10.749 Z-0.2973
N7470 X26.4341 Y-10.7505 Z-0.2953
N7475 X26.4351 Y-10.7516 Z-0.2929
N7480 X26.4358 Y-10.7522 Z-0.2903
N7485 X26.436 Y-10.7525 Z-0.2875
N7490 G0 Z0.2
N7495 G1 X26.4355 Y-10.2512 F400.
N7500 G0 Z0.08
N7505 G1 Z0.0125 F45.
N7510 G19 G2 Y-10.2637 Z0. J-0.0125 K0.
N7515 G1 Y-10.27
N7520 G17 G3 X26.448 Y-10.2825 I0.0125 J0.
N7525 X26.4449 Y-10.2824 Z-0.0388 I0. J0.0355
N7530 X26.4714 Y-10.2203 Z-0.0545 I0.0031 J0.0354
N7535 X26.4647 Y-10.2783 Z-0.0818 I-0.0234 J-0.0267
N7540 X26.462 Y-10.2796 Z-0.1206 I-0.0167 J0.0313
N7545 X26.456 Y-10.2124 Z-0.1364 I-0.014 J0.0326
N7550 X26.4775 Y-10.2667 Z-0.1636 I-0.008 J-0.0346
N7555 X26.4757 Y-10.2692 Z-0.2025 I-0.0295 J0.0197
N7560 X26.4737 Y-10.2715 Z-0.2413 I-0.0277 J0.0222
N7565 X26.4714 Y-10.2737 Z-0.2801 I-0.0257 J0.0245
N7570 X26.4237 Y-10.2211 Z-0.3 I-0.0234 J0.0267
N7575 X26.4723 Y-10.2729 I0.0243 J-0.0259
N7580 X26.4237 Y-10.2211 I-0.0243 J0.0259
N7585 X26.4231 Y-10.2388 I0.0086 J-0.0091
N7590 G1 X26.4274 Y-10.2433
N7595 X26.4293 Y-10.2454 Z-0.2997
N7600 X26.4311 Y-10.2473 Z-0.2988
N7605 X26.4328 Y-10.249 Z-0.2973
N7610 X26.4341 Y-10.2505 Z-0.2953
N7615 X26.4351 Y-10.2516 Z-0.2929
N7620 X26.4358 Y-10.2522 Z-0.2903
N7625 X26.436 Y-10.2525 Z-0.2875
N7630 G0 Z0.2
N7635 G1 X26.4355 Y-9.7512 F400.
N7640 G0 Z0.08
N7645 G1 Z0.0125 F45.
N7650 G19 G2 Y-9.7638 Z0. J-0.0125 K0.
N7655 G1 Y-9.77
N7660 G17 G3 X26.448 Y-9.7825 I0.0125 J0.
N7665 X26.4449 Y-9.7824 Z-0.0388 I0. J0.0355
N7670 X26.4714 Y-9.7203 Z-0.0545 I0.0031 J0.0354
N7675 X26.4736 Y-9.7224 Z-0.0934 I-0.0234 J-0.0267
N7680 X26.4128 Y-9.7517 Z-0.1091 I-0.0256 J-0.0246
N7685 X26.456 Y-9.7124 Z-0.1364 I0.0352 J0.0047
N7690 X26.4775 Y-9.7667 Z-0.1636 I-0.008 J-0.0346
N7695 X26.4757 Y-9.7692 Z-0.2025 I-0.0295 J0.0197
N7700 X26.4737 Y-9.7715 Z-0.2413 I-0.0277 J0.0222
N7705 X26.4714 Y-9.7737 Z-0.2801 I-0.0257 J0.0245
N7710 X26.4237 Y-9.7211 Z-0.3 I-0.0234 J0.0267
N7715 X26.4723 Y-9.7729 I0.0243 J-0.0259
N7720 X26.4237 Y-9.7211 I-0.0243 J0.0259
N7725 X26.4231 Y-9.7388 I0.0086 J-0.0091
N7730 G1 X26.4274 Y-9.7433
N7735 X26.4293 Y-9.7454 Z-0.2997
N7740 X26.4311 Y-9.7473 Z-0.2988
N7745 X26.4328 Y-9.749 Z-0.2973
N7750 X26.4341 Y-9.7505 Z-0.2953
N7755 X26.4351 Y-9.7516 Z-0.2929
N7760 X26.4358 Y-9.7522 Z-0.2903
N7765 X26.436 Y-9.7525 Z-0.2875
N7770 G0 Z0.2
N7775 G1 X26.4355 Y-9.2513 F400.
N7780 G0 Z0.08
N7785 G1 Z0.0125 F45.
N7790 G19 G2 Y-9.2638 Z0. J-0.0125 K0.
N7795 G1 Y-9.27
N7800 G17 G3 X26.448 Y-9.2825 I0.0125 J0.
N7805 X26.4449 Y-9.2824 Z-0.0388 I0. J0.0355
N7810 X26.4714 Y-9.2203 Z-0.0545 I0.0031 J0.0354
N7815 X26.4736 Y-9.2224 Z-0.0934 I-0.0234 J-0.0267
N7820 X26.4128 Y-9.2517 Z-0.1091 I-0.0256 J-0.0246
N7825 X26.456 Y-9.2124 Z-0.1364 I0.0352 J0.0047
N7830 X26.4775 Y-9.2667 Z-0.1636 I-0.008 J-0.0346
N7835 X26.4757 Y-9.2692 Z-0.2025 I-0.0295 J0.0197
N7840 X26.4737 Y-9.2715 Z-0.2413 I-0.0277 J0.0222
N7845 X26.4714 Y-9.2737 Z-0.2801 I-0.0257 J0.0245
N7850 X26.4237 Y-9.2211 Z-0.3 I-0.0234 J0.0267
N7855 X26.4723 Y-9.2729 I0.0243 J-0.0259
N7860 X26.4237 Y-9.2211 I-0.0243 J0.0259
N7865 X26.4231 Y-9.2388 I0.0086 J-0.0091
N7870 G1 X26.4274 Y-9.2433
N7875 X26.4293 Y-9.2454 Z-0.2997
N7880 X26.4311 Y-9.2473 Z-0.2988
N7885 X26.4328 Y-9.249 Z-0.2973
N7890 X26.4341 Y-9.2505 Z-0.2953
N7895 X26.4351 Y-9.2516 Z-0.2929
N7900 X26.4358 Y-9.2522 Z-0.2903
N7905 X26.436 Y-9.2525 Z-0.2875
N7910 G0 Z0.2
N7915 G1 X26.4355 Y-8.7513 F400.
N7920 G0 Z0.08
N7925 G1 Z0.0125 F45.
N7930 G19 G2 Y-8.7637 Z0. J-0.0125 K0.
N7935 G1 Y-8.77
N7940 G17 G3 X26.448 Y-8.7825 I0.0125 J0.
N7945 X26.4449 Y-8.7824 Z-0.0388 I0. J0.0355
N7950 X26.4714 Y-8.7203 Z-0.0545 I0.0031 J0.0354
N7955 X26.4647 Y-8.7783 Z-0.0818 I-0.0234 J-0.0267
N7960 X26.462 Y-8.7796 Z-0.1206 I-0.0167 J0.0313
N7965 X26.456 Y-8.7124 Z-0.1364 I-0.014 J0.0326
N7970 X26.4775 Y-8.7667 Z-0.1636 I-0.008 J-0.0346
N7975 X26.4757 Y-8.7692 Z-0.2025 I-0.0295 J0.0197
N7980 X26.4737 Y-8.7715 Z-0.2413 I-0.0277 J0.0222
N7985 X26.4714 Y-8.7737 Z-0.2801 I-0.0257 J0.0245
N7990 X26.4237 Y-8.7211 Z-0.3 I-0.0234 J0.0267
N7995 X26.4723 Y-8.7729 I0.0243 J-0.0259
N8000 X26.4237 Y-8.7211 I-0.0243 J0.0259
N8005 X26.4231 Y-8.7388 I0.0086 J-0.0091
N8010 G1 X26.4274 Y-8.7433
N8015 X26.4293 Y-8.7454 Z-0.2997
N8020 X26.4311 Y-8.7473 Z-0.2988
N8025 X26.4328 Y-8.749 Z-0.2973
N8030 X26.4341 Y-8.7505 Z-0.2953
N8035 X26.4351 Y-8.7516 Z-0.2929
N8040 X26.4358 Y-8.7522 Z-0.2903
N8045 X26.436 Y-8.7525 Z-0.2875
N8050 G0 Z0.2
N8055 G1 X26.4355 Y-8.2513 F400.
N8060 G0 Z0.08
N8065 G1 Z0.0125 F45.
N8070 G19 G2 Y-8.2637 Z0. J-0.0125 K0.
N8075 G1 Y-8.27
N8080 G17 G3 X26.448 Y-8.2825 I0.0125 J0.
N8085 X26.4449 Y-8.2824 Z-0.0388 I0. J0.0355
N8090 X26.4714 Y-8.2203 Z-0.0545 I0.0031 J0.0354
N8095 X26.4647 Y-8.2783 Z-0.0818 I-0.0234 J-0.0267
N8100 X26.462 Y-8.2796 Z-0.1206 I-0.0167 J0.0313
N8105 X26.456 Y-8.2124 Z-0.1364 I-0.014 J0.0326
N8110 X26.4775 Y-8.2667 Z-0.1636 I-0.008 J-0.0346
N8115 X26.4757 Y-8.2692 Z-0.2025 I-0.0295 J0.0197
N8120 X26.4737 Y-8.2715 Z-0.2413 I-0.0277 J0.0222
N8125 X26.4714 Y-8.2737 Z-0.2801 I-0.0257 J0.0245
N8130 X26.4237 Y-8.2211 Z-0.3 I-0.0234 J0.0267
N8135 X26.4723 Y-8.2729 I0.0243 J-0.0259
N8140 X26.4237 Y-8.2211 I-0.0243 J0.0259
N8145 X26.4231 Y-8.2388 I0.0086 J-0.0091
N8150 G1 X26.4274 Y-8.2433
N8155 X26.4293 Y-8.2454 Z-0.2997
N8160 X26.4311 Y-8.2473 Z-0.2988
N8165 X26.4328 Y-8.249 Z-0.2973
N8170 X26.4341 Y-8.2505 Z-0.2953
N8175 X26.4351 Y-8.2516 Z-0.2929
N8180 X26.4358 Y-8.2522 Z-0.2903
N8185 X26.436 Y-8.2525 Z-0.2875
N8190 G0 Z0.2
N8195 G1 X26.4355 Y-7.7512 F400.
N8200 G0 Z0.08
N8205 G1 Z0.0125 F45.
N8210 G19 G2 Y-7.7637 Z0. J-0.0125 K0.
N8215 G1 Y-7.77
N8220 G17 G3 X26.448 Y-7.7825 I0.0125 J0.
N8225 X26.4449 Y-7.7824 Z-0.0388 I0. J0.0355
N8230 X26.4714 Y-7.7203 Z-0.0545 I0.0031 J0.0354
N8235 X26.4736 Y-7.7224 Z-0.0934 I-0.0234 J-0.0267
N8240 X26.4128 Y-7.7517 Z-0.1091 I-0.0256 J-0.0246
N8245 X26.456 Y-7.7124 Z-0.1364 I0.0352 J0.0047
N8250 X26.4775 Y-7.7667 Z-0.1636 I-0.008 J-0.0346
N8255 X26.4757 Y-7.7692 Z-0.2025 I-0.0295 J0.0197
N8260 X26.4737 Y-7.7715 Z-0.2413 I-0.0277 J0.0222
N8265 X26.4714 Y-7.7737 Z-0.2801 I-0.0257 J0.0245
N8270 X26.4237 Y-7.7211 Z-0.3 I-0.0234 J0.0267
N8275 X26.4723 Y-7.7729 I0.0243 J-0.0259
N8280 X26.4237 Y-7.7211 I-0.0243 J0.0259
N8285 X26.4231 Y-7.7388 I0.0086 J-0.0091
N8290 G1 X26.4274 Y-7.7433
N8295 X26.4293 Y-7.7454 Z-0.2997
N8300 X26.4311 Y-7.7473 Z-0.2988
N8305 X26.4328 Y-7.749 Z-0.2973
N8310 X26.4341 Y-7.7505 Z-0.2953
N8315 X26.4351 Y-7.7516 Z-0.2929
N8320 X26.4358 Y-7.7522 Z-0.2903
N8325 X26.436 Y-7.7525 Z-0.2875
N8330 G0 Z0.2
N8335 G1 X26.4355 Y-7.2512 F400.
N8340 G0 Z0.08
N8345 G1 Z0.0125 F45.
N8350 G19 G2 Y-7.2638 Z0. J-0.0125 K0.
N8355 G1 Y-7.27
N8360 G17 G3 X26.448 Y-7.2825 I0.0125 J0.
N8365 X26.4449 Y-7.2824 Z-0.0388 I0. J0.0355
N8370 X26.4714 Y-7.2203 Z-0.0545 I0.0031 J0.0354
N8375 X26.4736 Y-7.2224 Z-0.0934 I-0.0234 J-0.0267
N8380 X26.4128 Y-7.2517 Z-0.1091 I-0.0256 J-0.0246
N8385 X26.456 Y-7.2124 Z-0.1364 I0.0352 J0.0047
N8390 X26.4775 Y-7.2667 Z-0.1636 I-0.008 J-0.0346
N8395 X26.4757 Y-7.2692 Z-0.2025 I-0.0295 J0.0197
N8400 X26.4737 Y-7.2715 Z-0.2413 I-0.0277 J0.0222
N8405 X26.4714 Y-7.2737 Z-0.2801 I-0.0257 J0.0245
N8410 X26.4237 Y-7.2211 Z-0.3 I-0.0234 J0.0267
N8415 X26.4723 Y-7.2729 I0.0243 J-0.0259
N8420 X26.4237 Y-7.2211 I-0.0243 J0.0259
N8425 X26.4231 Y-7.2388 I0.0086 J-0.0091
N8430 G1 X26.4274 Y-7.2433
N8435 X26.4293 Y-7.2454 Z-0.2997
N8440 X26.4311 Y-7.2473 Z-0.2988
N8445 X26.4328 Y-7.249 Z-0.2973
N8450 X26.4341 Y-7.2505 Z-0.2953
N8455 X26.4351 Y-7.2516 Z-0.2929
N8460 X26.4358 Y-7.2522 Z-0.2903
N8465 X26.436 Y-7.2525 Z-0.2875
N8470 G0 Z0.2
N8475 G1 X26.4355 Y-6.7513 F400.
N8480 G0 Z0.08
N8485 G1 Z0.0125 F45.
N8490 G19 G2 Y-6.7638 Z0. J-0.0125 K0.
N8495 G1 Y-6.77
N8500 G17 G3 X26.448 Y-6.7825 I0.0125 J0.
N8505 X26.4449 Y-6.7824 Z-0.0388 I0. J0.0355
N8510 X26.4714 Y-6.7203 Z-0.0545 I0.0031 J0.0354
N8515 X26.4736 Y-6.7224 Z-0.0934 I-0.0234 J-0.0267
N8520 X26.4128 Y-6.7517 Z-0.1091 I-0.0256 J-0.0246
N8525 X26.456 Y-6.7124 Z-0.1364 I0.0352 J0.0047
N8530 X26.4775 Y-6.7667 Z-0.1636 I-0.008 J-0.0346
N8535 X26.4757 Y-6.7692 Z-0.2025 I-0.0295 J0.0197
N8540 X26.4737 Y-6.7715 Z-0.2413 I-0.0277 J0.0222
N8545 X26.4714 Y-6.7737 Z-0.2801 I-0.0257 J0.0245
N8550 X26.4237 Y-6.7211 Z-0.3 I-0.0234 J0.0267
N8555 X26.4723 Y-6.7729 I0.0243 J-0.0259
N8560 X26.4237 Y-6.7211 I-0.0243 J0.0259
N8565 X26.4231 Y-6.7388 I0.0086 J-0.0091
N8570 G1 X26.4274 Y-6.7433
N8575 X26.4293 Y-6.7454 Z-0.2997
N8580 X26.4311 Y-6.7473 Z-0.2988
N8585 X26.4328 Y-6.749 Z-0.2973
N8590 X26.4341 Y-6.7505 Z-0.2953
N8595 X26.4351 Y-6.7516 Z-0.2929
N8600 X26.4358 Y-6.7522 Z-0.2903
N8605 X26.436 Y-6.7525 Z-0.2875
N8610 G0 Z0.2
N8615 G1 X26.4355 Y-6.2513 F400.
N8620 G0 Z0.08
N8625 G1 Z0.0125 F45.
N8630 G19 G2 Y-6.2637 Z0. J-0.0125 K0.
N8635 G1 Y-6.27
N8640 G17 G3 X26.448 Y-6.2825 I0.0125 J0.
N8645 X26.4449 Y-6.2824 Z-0.0388 I0. J0.0355
N8650 X26.4714 Y-6.2203 Z-0.0545 I0.0031 J0.0354
N8655 X26.4647 Y-6.2783 Z-0.0818 I-0.0234 J-0.0267
N8660 X26.462 Y-6.2796 Z-0.1206 I-0.0167 J0.0313
N8665 X26.456 Y-6.2124 Z-0.1364 I-0.014 J0.0326
N8670 X26.4775 Y-6.2667 Z-0.1636 I-0.008 J-0.0346
N8675 X26.4757 Y-6.2692 Z-0.2025 I-0.0295 J0.0197
N8680 X26.4737 Y-6.2715 Z-0.2413 I-0.0277 J0.0222
N8685 X26.4714 Y-6.2737 Z-0.2801 I-0.0257 J0.0245
N8690 X26.4237 Y-6.2211 Z-0.3 I-0.0234 J0.0267
N8695 X26.4723 Y-6.2729 I0.0243 J-0.0259
N8700 X26.4237 Y-6.2211 I-0.0243 J0.0259
N8705 X26.4231 Y-6.2388 I0.0086 J-0.0091
N8710 G1 X26.4274 Y-6.2433
N8715 X26.4293 Y-6.2454 Z-0.2997
N8720 X26.4311 Y-6.2473 Z-0.2988
N8725 X26.4328 Y-6.249 Z-0.2973
N8730 X26.4341 Y-6.2505 Z-0.2953
N8735 X26.4351 Y-6.2516 Z-0.2929
N8740 X26.4358 Y-6.2522 Z-0.2903
N8745 X26.436 Y-6.2525 Z-0.2875
N8750 G0 Z0.2
N8755 G1 X26.4355 Y-5.7513 F400.
N8760 G0 Z0.08
N8765 G1 Z0.0125 F45.
N8770 G19 G2 Y-5.7637 Z0. J-0.0125 K0.
N8775 G1 Y-5.77
N8780 G17 G3 X26.448 Y-5.7825 I0.0125 J0.
N8785 X26.4449 Y-5.7824 Z-0.0388 I0. J0.0355
N8790 X26.4714 Y-5.7203 Z-0.0545 I0.0031 J0.0354
N8795 X26.4647 Y-5.7783 Z-0.0818 I-0.0234 J-0.0267
N8800 X26.462 Y-5.7796 Z-0.1206 I-0.0167 J0.0313
N8805 X26.456 Y-5.7124 Z-0.1364 I-0.014 J0.0326
N8810 X26.4775 Y-5.7667 Z-0.1636 I-0.008 J-0.0346
N8815 X26.4757 Y-5.7692 Z-0.2025 I-0.0295 J0.0197
N8820 X26.4737 Y-5.7715 Z-0.2413 I-0.0277 J0.0222
N8825 X26.4714 Y-5.7737 Z-0.2801 I-0.0257 J0.0245
N8830 X26.4237 Y-5.7211 Z-0.3 I-0.0234 J0.0267
N8835 X26.4723 Y-5.7729 I0.0243 J-0.0259
N8840 X26.4237 Y-5.7211 I-0.0243 J0.0259
N8845 X26.4231 Y-5.7388 I0.0086 J-0.0091
N8850 G1 X26.4274 Y-5.7433
N8855 X26.4293 Y-5.7454 Z-0.2997
N8860 X26.4311 Y-5.7473 Z-0.2988
N8865 X26.4328 Y-5.749 Z-0.2973
N8870 X26.4341 Y-5.7505 Z-0.2953
N8875 X26.4351 Y-5.7516 Z-0.2929
N8880 X26.4358 Y-5.7522 Z-0.2903
N8885 X26.436 Y-5.7525 Z-0.2875
N8890 G0 Z0.2
N8895 G1 X26.4355 Y-5.2512 F400.
N8900 G0 Z0.08
N8905 G1 Z0.0125 F45.
N8910 G19 G2 Y-5.2637 Z0. J-0.0125 K0.
N8915 G1 Y-5.27
N8920 G17 G3 X26.448 Y-5.2825 I0.0125 J0.
N8925 X26.4449 Y-5.2824 Z-0.0388 I0. J0.0355
N8930 X26.4714 Y-5.2203 Z-0.0545 I0.0031 J0.0354
N8935 X26.4736 Y-5.2224 Z-0.0934 I-0.0234 J-0.0267
N8940 X26.4128 Y-5.2517 Z-0.1091 I-0.0256 J-0.0246
N8945 X26.456 Y-5.2124 Z-0.1364 I0.0352 J0.0047
N8950 X26.4775 Y-5.2667 Z-0.1636 I-0.008 J-0.0346
N8955 X26.4757 Y-5.2692 Z-0.2025 I-0.0295 J0.0197
N8960 X26.4737 Y-5.2715 Z-0.2413 I-0.0277 J0.0222
N8965 X26.4714 Y-5.2737 Z-0.2801 I-0.0257 J0.0245
N8970 X26.4237 Y-5.2211 Z-0.3 I-0.0234 J0.0267
N8975 X26.4723 Y-5.2729 I0.0243 J-0.0259
N8980 X26.4237 Y-5.2211 I-0.0243 J0.0259
N8985 X26.4231 Y-5.2388 I0.0086 J-0.0091
N8990 G1 X26.4274 Y-5.2433
N8995 X26.4293 Y-5.2454 Z-0.2997
N9000 X26.4311 Y-5.2473 Z-0.2988
N9005 X26.4328 Y-5.249 Z-0.2973
N9010 X26.4341 Y-5.2505 Z-0.2953
N9015 X26.4351 Y-5.2516 Z-0.2929
N9020 X26.4358 Y-5.2522 Z-0.2903
N9025 X26.436 Y-5.2525 Z-0.2875
N9030 G0 Z0.2
N9035 G1 X26.4355 Y-4.7512 F400.
N9040 G0 Z0.08
N9045 G1 Z0.0125 F45.
N9050 G19 G2 Y-4.7638 Z0. J-0.0125 K0.
N9055 G1 Y-4.77
N9060 G17 G3 X26.448 Y-4.7825 I0.0125 J0.
N9065 X26.4449 Y-4.7824 Z-0.0388 I0. J0.0355
N9070 X26.4714 Y-4.7203 Z-0.0545 I0.0031 J0.0354
N9075 X26.4647 Y-4.7783 Z-0.0818 I-0.0234 J-0.0267
N9080 X26.462 Y-4.7796 Z-0.1206 I-0.0167 J0.0313
N9085 X26.456 Y-4.7124 Z-0.1364 I-0.014 J0.0326
N9090 X26.4775 Y-4.7667 Z-0.1636 I-0.008 J-0.0346
N9095 X26.4757 Y-4.7692 Z-0.2025 I-0.0295 J0.0197
N9100 X26.4737 Y-4.7715 Z-0.2413 I-0.0277 J0.0222
N9105 X26.4714 Y-4.7737 Z-0.2801 I-0.0257 J0.0245
N9110 X26.4237 Y-4.7211 Z-0.3 I-0.0234 J0.0267
N9115 X26.4723 Y-4.7729 I0.0243 J-0.0259
N9120 X26.4237 Y-4.7211 I-0.0243 J0.0259
N9125 X26.4231 Y-4.7388 I0.0086 J-0.0091
N9130 G1 X26.4274 Y-4.7433
N9135 X26.4293 Y-4.7454 Z-0.2997
N9140 X26.4311 Y-4.7473 Z-0.2988
N9145 X26.4328 Y-4.749 Z-0.2973
N9150 X26.4341 Y-4.7505 Z-0.2953
N9155 X26.4351 Y-4.7516 Z-0.2929
N9160 X26.4358 Y-4.7522 Z-0.2903
N9165 X26.436 Y-4.7525 Z-0.2875
N9170 G0 Z0.2
N9175 G1 X24.7605 Y-5.2763 F400.
N9180 G0 Z0.08
N9185 G1 Z0.0125 F45.
N9190 G19 G2 Y-5.2887 Z0. J-0.0125 K0.
N9195 G1 Y-5.295
N9200 G17 G3 X24.773 Y-5.3075 I0.0125 J0.
N9205 X24.7676 Y-5.3073 Z-0.0388 I0. J0.0625
N9210 X24.7621 Y-5.3066 Z-0.0776 I0.0054 J0.0623
N9215 X24.7568 Y-5.3054 Z-0.1165 I0.0109 J0.0616
N9220 X24.7516 Y-5.3037 Z-0.1553 I0.0162 J0.0604
N9225 X24.7466 Y-5.3016 Z-0.1941 I0.0214 J0.0587
N9230 X24.7417 Y-5.2991 Z-0.2329 I0.0264 J0.0566
N9235 X24.7372 Y-5.2962 Z-0.2718 I0.0313 J0.0541
N9240 X24.7302 Y-5.1994 Z-0.3 I0.0358 J0.0512
N9245 X24.8158 Y-5.2906 I0.0428 J-0.0456
N9250 X24.7302 Y-5.1994 I-0.0428 J0.0456
N9255 X24.7297 Y-5.2171 I0.0086 J-0.0091
N9260 G1 X24.7339 Y-5.2217
N9265 X24.7358 Y-5.2237 Z-0.2997
N9270 X24.7377 Y-5.2256 Z-0.2988
N9275 X24.7393 Y-5.2273 Z-0.2973
N9280 X24.7406 Y-5.2288 Z-0.2953
N9285 X24.7416 Y-5.2299 Z-0.2929
N9290 X24.7423 Y-5.2305 Z-0.2903
N9295 X24.7425 Y-5.2308 Z-0.2875
N9300 G0 Z0.6
N9305 M5
N9310 G53 G0 Z0.

(2D Contour1)
N9315 M1
N9320 T4 M6
N9325 S5989 M3
N9330 G54
N9335 G17 G90
N9340 G1 X19.248 Y-11.27 F400.
N9345 G0 G43 Z0.6 H4
N9350 T8
N9355 G0 Z0.2
N9360 G1 Z-0.055 F26.952
N9365 G18 G2 X19.273 Z-0.08 I0.025 K0. F71.872
N9370 G1 X19.298
N9375 G17 G3 X19.323 Y-11.245 I0. J0.025
N9380 G1 Y-9.697
N9385 G3 X19.198 Y-9.572 I-0.125 J0.
N9390 G1 X17.698
N9395 G3 X17.573 Y-9.697 I0. J-0.125
N9400 G1 Y-11.245
N9405 G2 X17.198 Y-11.62 I-0.375 J0.
N9410 G1 X9.698
N9415 G2 X9.323 Y-11.245 I0. J0.375
N9420 G1 Y-9.697
N9425 G3 X9.198 Y-9.572 I-0.125 J0.
N9430 G1 X7.698
N9435 G3 X7.573 Y-9.697 I0. J-0.125
N9440 G1 Y-11.245
N9445 G2 X7.198 Y-11.62 I-0.375 J0.
N9450 G1 X0.25
N9455 G2 X-0.125 Y-11.245 I0. J0.375
N9460 G1 Y-4.549
N9465 G2 X0.25 Y-4.174 I0.375 J0.
N9470 G1 X9.198
N9475 G3 X9.323 Y-4.049 I0. J0.125
N9480 G1 Y-1.
N9485 G2 X10.448 Y0.125 I1.125 J0.
N9490 G1 X16.448
N9495 G2 X17.573 Y-1. I0. J-1.125
N9500 G1 Y-4.049
N9505 G3 X17.698 Y-4.174 I0.125 J0.
N9510 G1 X26.646
N9515 G2 X27.021 Y-4.549 I0. J-0.375
N9520 G1 Y-11.245
N9525 G2 X26.646 Y-11.62 I-0.375 J0.
N9530 G1 X19.698
N9535 G2 X19.323 Y-11.245 I0. J0.375
N9540 G3 X19.298 Y-11.22 I-0.025 J0.
N9545 G1 X19.273
N9550 G18 G3 X19.248 Z-0.055 I0. K0.025
N9555 G0 Z0.2
N9560 Y-11.27
N9565 G1 Z-0.135 F26.952
N9570 G2 X19.273 Z-0.16 I0.025 K0. F71.872
N9575 G1 X19.298
N9580 G17 G3 X19.323 Y-11.245 I0. J0.025
N9585 G1 Y-9.697
N9590 G3 X19.198 Y-9.572 I-0.125 J0.
N9595 G1 X17.698
N9600 G3 X17.573 Y-9.697 I0. J-0.125
N9605 G1 Y-11.245
N9610 G2 X17.198 Y-11.62 I-0.375 J0.
N9615 G1 X9.698
N9620 G2 X9.323 Y-11.245 I0. J0.375
N9625 G1 Y-9.697
N9630 G3 X9.198 Y-9.572 I-0.125 J0.
N9635 G1 X7.698
N9640 G3 X7.573 Y-9.697 I0. J-0.125
N9645 G1 Y-11.245
N9650 G2 X7.198 Y-11.62 I-0.375 J0.
N9655 G1 X0.25
N9660 G2 X-0.125 Y-11.245 I0. J0.375
N9665 G1 Y-4.549
N9670 G2 X0.25 Y-4.174 I0.375 J0.
N9675 G1 X9.198
N9680 G3 X9.323 Y-4.049 I0. J0.125
N9685 G1 Y-1.
N9690 G2 X10.448 Y0.125 I1.125 J0.
N9695 G1 X16.448
N9700 G2 X17.573 Y-1. I0. J-1.125
N9705 G1 Y-4.049
N9710 G3 X17.698 Y-4.174 I0.125 J0.
N9715 G1 X26.646
N9720 G2 X27.021 Y-4.549 I0. J-0.375
N9725 G1 Y-11.245
N9730 G2 X26.646 Y-11.62 I-0.375 J0.
N9735 G1 X19.698
N9740 G2 X19.323 Y-11.245 I0. J0.375
N9745 G3 X19.298 Y-11.22 I-0.025 J0.
N9750 G1 X19.273
N9755 G18 G3 X19.248 Z-0.135 I0. K0.025
N9760 G0 Z0.2
N9765 Y-11.27
N9770 G1 Z-0.215 F26.952
N9775 G2 X19.273 Z-0.24 I0.025 K0. F71.872
N9780 G1 X19.298
N9785 G17 G3 X19.323 Y-11.245 I0. J0.025
N9790 G1 Y-9.697
N9795 G3 X19.198 Y-9.572 I-0.125 J0.
N9800 G1 X17.698
N9805 G3 X17.573 Y-9.697 I0. J-0.125
N9810 G1 Y-11.245
N9815 G2 X17.198 Y-11.62 I-0.375 J0.
N9820 G1 X9.698
N9825 G2 X9.323 Y-11.245 I0. J0.375
N9830 G1 Y-9.697
N9835 G3 X9.198 Y-9.572 I-0.125 J0.
N9840 G1 X7.698
N9845 G3 X7.573 Y-9.697 I0. J-0.125
N9850 G1 Y-11.245
N9855 G2 X7.198 Y-11.62 I-0.375 J0.
N9860 G1 X0.25
N9865 G2 X-0.125 Y-11.245 I0. J0.375
N9870 G1 Y-4.549
N9875 G2 X0.25 Y-4.174 I0.375 J0.
N9880 G1 X9.198
N9885 G3 X9.323 Y-4.049 I0. J0.125
N9890 G1 Y-1.
N9895 G2 X10.448 Y0.125 I1.125 J0.
N9900 G1 X16.448
N9905 G2 X17.573 Y-1. I0. J-1.125
N9910 G1 Y-4.049
N9915 G3 X17.698 Y-4.174 I0.125 J0.
N9920 G1 X26.646
N9925 G2 X27.021 Y-4.549 I0. J-0.375
N9930 G1 Y-11.245
N9935 G2 X26.646 Y-11.62 I-0.375 J0.
N9940 G1 X19.698
N9945 G2 X19.323 Y-11.245 I0. J0.375
N9950 G3 X19.298 Y-11.22 I-0.025 J0.
N9955 G1 X19.273
N9960 G18 G3 X19.248 Z-0.215 I0. K0.025
N9965 G0 Z0.2
N9970 Y-11.27
N9975 G1 Z-0.275 F26.952
N9980 G2 X19.273 Z-0.3 I0.025 K0. F71.872
N9985 G1 X19.298
N9990 G17 G3 X19.323 Y-11.245 I0. J0.025
N9995 G1 Y-9.697
N10000 G3 X19.198 Y-9.572 I-0.125 J0.
N10005 G1 X17.698
N10010 G3 X17.573 Y-9.697 I0. J-0.125
N10015 G1 Y-11.245
N10020 G2 X17.198 Y-11.62 I-0.375 J0.
N10025 G1 X9.698
N10030 G2 X9.323 Y-11.245 I0. J0.375
N10035 G1 Y-9.697
N10040 G3 X9.198 Y-9.572 I-0.125 J0.
N10045 G1 X7.698
N10050 G3 X7.573 Y-9.697 I0. J-0.125
N10055 G1 Y-11.245
N10060 G2 X7.198 Y-11.62 I-0.375 J0.
N10065 G1 X0.25
N10070 G2 X-0.125 Y-11.245 I0. J0.375
N10075 G1 Y-4.549
N10080 G2 X0.25 Y-4.174 I0.375 J0.
N10085 G1 X9.198
N10090 G3 X9.323 Y-4.049 I0. J0.125
N10095 G1 Y-1.
N10100 G2 X10.448 Y0.125 I1.125 J0.
N10105 G1 X16.448
N10110 G2 X17.573 Y-1. I0. J-1.125
N10115 G1 Y-4.049
N10120 G3 X17.698 Y-4.174 I0.125 J0.
N10125 G1 X26.646
N10130 G2 X27.021 Y-4.549 I0. J-0.375
N10135 G1 Y-11.245
N10140 G2 X26.646 Y-11.62 I-0.375 J0.
N10145 G1 X19.698
N10150 G2 X19.323 Y-11.245 I0. J0.375
N10155 G3 X19.298 Y-11.22 I-0.025 J0.
N10160 G1 X19.273
N10165 G18 G3 X19.248 Z-0.275 I0. K0.025
N10170 G0 Z0.6

N10175 M5
N10180 G53 G0 Z0.
N10185 X13.448
N10190 G53 G0 Y0.
N10195 M30

%
